; generated by Slic3r 1.3.0 on 2024-07-09 at 08:23:24

; external perimeters extrusion width = 0.55mm (7.28mm^3/s)
; perimeters extrusion width = 0.70mm (11.44mm^3/s)
; infill extrusion width = 0.63mm (13.45mm^3/s)
; solid infill extrusion width = 0.70mm (3.81mm^3/s)
; top infill extrusion width = 0.70mm (2.86mm^3/s)

M107
M104 S200 ; set temperature
G28 ; home all axes
G1 Z5 F5000 ; lift nozzle

; Filament gcode

M109 S200 ; set temperature and wait for it to be reached
G21 ; set units to millimeters
G90 ; use absolute coordinates
M82 ; use absolute distances for extrusion
G92 E0
G1 Z0.350 F7800.000
G1 E-2.00000 F2400.00000
G92 E0
G1 X28.565 Y39.834 F7800.000
G1 E2.00000 F2400.00000
G1 F1800
G1 X43.038 Y25.361 E2.56858
G1 X44.908 Y24.052 E2.63198
G1 X47.678 Y23.439 E2.71077
G1 X152.322 Y23.439 E5.61757
G1 X154.570 Y23.836 E5.68096
G1 X156.962 Y25.361 E5.75975
G1 X174.639 Y43.038 E6.45420
G1 X175.948 Y44.908 E6.51760
G1 X176.561 Y47.678 E6.59639
G1 X176.561 Y152.322 E9.50318
G1 X176.164 Y154.570 E9.56658
G1 X174.639 Y156.962 E9.64537
G1 X156.962 Y174.639 E10.33981
G1 X155.092 Y175.948 E10.40321
G1 X152.322 Y176.561 E10.48200
G1 X47.618 Y176.561 E13.39046
G1 X45.370 Y176.164 E13.45385
G1 X43.162 Y174.816 E13.52573
G1 X25.544 Y158.513 E14.19250
G1 X24.164 Y156.695 E14.25589
G1 X23.439 Y153.697 E14.34157
G1 X23.439 Y47.678 E17.28655
G1 X23.836 Y45.430 E17.34995
G1 X25.361 Y43.038 E17.42874
G1 X28.512 Y39.887 E17.55252
G1 E15.55252 F2400.00000
G92 E0
G1 X50.226 Y143.753 F7800.000
G1 E2.00000 F2400.00000
G1 F1800
G1 X51.132 Y143.946 E2.02575
G1 X52.014 Y144.232 E2.05150
G1 X52.861 Y144.609 E2.07724
G1 X53.634 Y145.055 E2.10204
G1 X54.059 Y145.346 E2.11633
G1 X54.766 Y145.919 E2.14162
G1 X55.419 Y146.572 E2.16728
G1 X55.915 Y147.178 E2.18903
G1 X56.272 Y147.685 E2.20626
G1 X56.731 Y148.480 E2.23174
G1 X57.108 Y149.326 E2.25749
G1 X57.395 Y150.208 E2.28324
G1 X57.587 Y151.115 E2.30899
G1 X57.684 Y152.037 E2.33474
G1 X57.684 Y152.963 E2.36048
G1 X57.587 Y153.885 E2.38623
G1 X57.395 Y154.792 E2.41198
G1 X57.108 Y155.674 E2.43773
G1 X56.731 Y156.520 E2.46348
G1 X56.272 Y157.315 E2.48896
G1 X55.915 Y157.822 E2.50619
G1 X55.419 Y158.428 E2.52794
G1 X54.766 Y159.081 E2.55360
G1 X54.046 Y159.664 E2.57935
G1 X53.271 Y160.168 E2.60501
G1 X52.581 Y160.523 E2.62656
G1 X52.005 Y160.770 E2.64398
G1 X51.132 Y161.054 E2.66947
G1 X50.226 Y161.247 E2.69522
G1 X49.304 Y161.344 E2.72097
G1 X48.377 Y161.344 E2.74672
G1 X47.455 Y161.247 E2.77246
G1 X46.549 Y161.054 E2.79821
G1 X45.676 Y160.771 E2.82369
G1 X45.106 Y160.526 E2.84091
G1 X44.410 Y160.168 E2.86267
G1 X43.635 Y159.664 E2.88833
G1 X42.915 Y159.081 E2.91408
G1 X42.259 Y158.426 E2.93983
G1 X41.676 Y157.705 E2.96558
G1 X41.171 Y156.928 E2.99132
G1 X40.750 Y156.102 E3.01708
G1 X40.418 Y155.236 E3.04283
G1 X40.178 Y154.341 E3.06857
G1 X40.036 Y153.443 E3.09383
G1 X39.997 Y152.946 E3.10770
G1 X39.997 Y152.037 E3.13295
G1 X40.094 Y151.115 E3.15870
G1 X40.286 Y150.208 E3.18444
G1 X40.567 Y149.343 E3.20969
G1 X40.758 Y148.882 E3.22356
G1 X41.171 Y148.072 E3.24882
G1 X41.676 Y147.295 E3.27456
G1 X42.259 Y146.574 E3.30032
G1 X42.915 Y145.919 E3.32607
G1 X43.635 Y145.336 E3.35181
G1 X44.412 Y144.831 E3.37756
G1 X45.239 Y144.410 E3.40331
G1 X46.104 Y144.078 E3.42906
G1 X46.999 Y143.838 E3.45481
G1 X47.906 Y143.694 E3.48030
G1 X48.531 Y143.653 E3.49771
G1 X49.307 Y143.657 E3.51927
G1 X50.151 Y143.745 E3.54284
G1 X50.138 Y144.308 F7800.000
G1 F1800
G1 X50.987 Y144.488 E3.56695
G1 X51.813 Y144.757 E3.59107
G1 X52.606 Y145.110 E3.61518
G1 X53.335 Y145.530 E3.63857
G1 X53.723 Y145.796 E3.65163
G1 X54.390 Y146.336 E3.67548
G1 X55.003 Y146.949 E3.69954
G1 X55.468 Y147.518 E3.71995
G1 X55.799 Y147.988 E3.73592
G1 X56.231 Y148.735 E3.75988
G1 X56.584 Y149.528 E3.78400
G1 X56.852 Y150.353 E3.80811
G1 X57.032 Y151.202 E3.83223
G1 X57.123 Y152.066 E3.85634
G1 X57.123 Y152.934 E3.88046
G1 X57.032 Y153.797 E3.90457
G1 X56.852 Y154.647 E3.92869
G1 X56.584 Y155.472 E3.95281
G1 X56.230 Y156.265 E3.97692
G1 X55.799 Y157.012 E4.00088
G1 X55.468 Y157.482 E4.01685
G1 X55.003 Y158.051 E4.03726
G1 X54.390 Y158.664 E4.06133
G1 X53.716 Y159.210 E4.08544
G1 X52.989 Y159.682 E4.10950
G1 X52.342 Y160.016 E4.12973
G1 X51.808 Y160.245 E4.14588
G1 X50.987 Y160.511 E4.16984
G1 X50.138 Y160.692 E4.19396
G1 X49.274 Y160.783 E4.21807
G1 X48.406 Y160.783 E4.24219
G1 X47.543 Y160.692 E4.26630
G1 X46.694 Y160.511 E4.29042
G1 X45.874 Y160.245 E4.31438
G1 X45.345 Y160.019 E4.33034
G1 X44.692 Y159.682 E4.35076
G1 X43.965 Y159.210 E4.37482
G1 X43.291 Y158.664 E4.39894
G1 X42.677 Y158.050 E4.42305
G1 X42.130 Y157.375 E4.44717
G1 X41.658 Y156.647 E4.47128
G1 X41.263 Y155.873 E4.49540
G1 X40.952 Y155.063 E4.51952
G1 X40.728 Y154.224 E4.54363
G1 X40.593 Y153.377 E4.56746
G1 X40.558 Y152.924 E4.58010
G1 X40.558 Y152.066 E4.60392
G1 X40.649 Y151.202 E4.62804
G1 X40.829 Y150.353 E4.65215
G1 X41.094 Y149.538 E4.67598
G1 X41.268 Y149.117 E4.68861
G1 X41.658 Y148.353 E4.71244
G1 X42.130 Y147.625 E4.73656
G1 X42.677 Y146.950 E4.76068
G1 X43.291 Y146.336 E4.78479
G1 X43.965 Y145.790 E4.80890
G1 X44.693 Y145.317 E4.83302
G1 X45.467 Y144.923 E4.85714
G1 X46.277 Y144.612 E4.88125
G1 X47.116 Y144.387 E4.90537
G1 X47.968 Y144.252 E4.92933
G1 X48.548 Y144.214 E4.94548
G1 X49.276 Y144.218 E4.96571
G1 X50.063 Y144.300 E4.98768
G1 X50.057 Y144.820 F7800.000
G1 F1800
G1 X50.853 Y144.989 E5.00682
G1 X51.627 Y145.241 E5.02596
G1 X52.370 Y145.572 E5.04510
G1 X53.059 Y145.969 E5.06379
G1 X53.413 Y146.212 E5.07388
G1 X54.043 Y146.722 E5.09294
G1 X54.618 Y147.297 E5.11206
G1 X55.055 Y147.831 E5.12830
G1 X55.362 Y148.267 E5.14083
G1 X55.768 Y148.970 E5.15992
G1 X56.099 Y149.713 E5.17906
G1 X56.351 Y150.488 E5.19820
G1 X56.520 Y151.284 E5.21733
G1 X56.605 Y152.093 E5.23647
G1 X56.605 Y152.907 E5.25561
G1 X56.520 Y153.716 E5.27475
G1 X56.351 Y154.512 E5.29388
G1 X56.099 Y155.286 E5.31302
G1 X55.768 Y156.030 E5.33216
G1 X55.362 Y156.733 E5.35125
G1 X55.055 Y157.169 E5.36378
G1 X54.618 Y157.703 E5.38002
G1 X54.043 Y158.278 E5.39914
G1 X53.411 Y158.790 E5.41828
G1 X52.729 Y159.233 E5.43740
G1 X52.121 Y159.547 E5.45348
G1 X51.625 Y159.760 E5.46617
G1 X50.853 Y160.010 E5.48526
G1 X50.057 Y160.180 E5.50440
G1 X49.247 Y160.265 E5.52353
G1 X48.433 Y160.265 E5.54267
G1 X47.624 Y160.180 E5.56181
G1 X46.828 Y160.010 E5.58094
G1 X46.056 Y159.760 E5.60003
G1 X45.566 Y159.550 E5.61256
G1 X44.952 Y159.233 E5.62880
G1 X44.270 Y158.790 E5.64793
G1 X43.638 Y158.278 E5.66706
G1 X43.062 Y157.703 E5.68620
G1 X42.550 Y157.070 E5.70534
G1 X42.107 Y156.388 E5.72447
G1 X41.737 Y155.663 E5.74361
G1 X41.446 Y154.903 E5.76275
G1 X41.235 Y154.117 E5.78189
G1 X41.108 Y153.316 E5.80094
G1 X41.076 Y152.903 E5.81068
G1 X41.076 Y152.093 E5.82973
G1 X41.161 Y151.284 E5.84887
G1 X41.330 Y150.488 E5.86801
G1 X41.580 Y149.717 E5.88706
G1 X41.739 Y149.334 E5.89680
G1 X42.107 Y148.612 E5.91585
G1 X42.550 Y147.930 E5.93499
G1 X43.062 Y147.297 E5.95413
G1 X43.638 Y146.722 E5.97327
G1 X44.270 Y146.210 E5.99240
G1 X44.953 Y145.766 E6.01154
G1 X45.678 Y145.397 E6.03068
G1 X46.438 Y145.105 E6.04981
G1 X47.224 Y144.895 E6.06895
G1 X48.026 Y144.768 E6.08804
G1 X48.564 Y144.732 E6.10073
G1 X49.248 Y144.735 E6.11681
G1 X49.982 Y144.812 E6.13417
G1 X50.057 Y144.820 F7800.000
G1 E4.13417 F2400.00000
G92 E0
G1 X63.646 Y143.646 F7800.000
G1 E2.00000 F2400.00000
G1 F1800
G1 X86.354 Y143.646 E2.63077
G1 X86.354 Y156.354 E2.98377
G1 X63.646 Y156.354 E3.61455
G1 X63.646 Y143.721 E3.96546
G1 X64.207 Y144.207 F7800.000
G1 F1800
G1 X85.793 Y144.207 E4.56507
G1 X85.793 Y155.793 E4.88690
G1 X64.207 Y155.793 E5.48650
G1 X64.207 Y144.282 E5.80625
G1 X64.725 Y144.725 F7800.000
G1 F1800
G1 X85.275 Y144.725 E6.28947
G1 X85.275 Y155.275 E6.53754
G1 X64.725 Y155.275 E7.02075
G1 X64.725 Y144.800 E7.26706
G1 X64.546 Y144.258 F7800.000
G1 E5.26706 F2400.00000
G92 E0
G1 X113.646 Y143.646 F7800.000
G1 E2.00000 F2400.00000
G1 F1800
G1 X136.354 Y143.646 E2.63077
G1 X136.354 Y156.354 E2.98377
G1 X113.646 Y156.354 E3.61455
G1 X113.646 Y143.721 E3.96546
G1 X114.207 Y144.207 F7800.000
G1 F1800
G1 X135.793 Y144.207 E4.56507
G1 X135.793 Y155.793 E4.88690
G1 X114.207 Y155.793 E5.48650
G1 X114.207 Y144.282 E5.80625
G1 X114.725 Y144.725 F7800.000
G1 F1800
G1 X135.275 Y144.725 E6.28947
G1 X135.275 Y155.275 E6.53754
G1 X114.725 Y155.275 E7.02075
G1 X114.725 Y144.800 E7.26706
G1 X114.546 Y144.258 F7800.000
G1 E5.26706 F2400.00000
G92 E0
G1 X143.798 Y150.905 F7800.000
G1 E2.00000 F2400.00000
G1 F1800
G1 X143.946 Y150.208 E2.01978
G1 X144.227 Y149.343 E2.04503
G1 X144.418 Y148.882 E2.05889
G1 X144.831 Y148.072 E2.08416
G1 X145.336 Y147.295 E2.10991
G1 X145.919 Y146.574 E2.13566
G1 X146.574 Y145.919 E2.16141
G1 X147.295 Y145.336 E2.18715
G1 X148.072 Y144.831 E2.21290
G1 X148.898 Y144.410 E2.23865
G1 X149.763 Y144.078 E2.26440
G1 X150.659 Y143.838 E2.29014
G1 X151.565 Y143.694 E2.31563
G1 X152.191 Y143.653 E2.33305
G1 X152.967 Y143.657 E2.35461
G1 X153.885 Y143.753 E2.38026
G1 X154.792 Y143.946 E2.40601
G1 X155.674 Y144.232 E2.43176
G1 X156.518 Y144.608 E2.45742
G1 X157.198 Y144.997 E2.47918
G1 X157.713 Y145.342 E2.49640
G1 X158.426 Y145.919 E2.52188
G1 X159.079 Y146.572 E2.54755
G1 X159.574 Y147.178 E2.56929
G1 X159.932 Y147.685 E2.58652
G1 X160.391 Y148.480 E2.61200
G1 X160.768 Y149.326 E2.63775
G1 X161.054 Y150.208 E2.66350
G1 X161.247 Y151.115 E2.68925
G1 X161.344 Y152.037 E2.71500
G1 X161.344 Y152.963 E2.74074
G1 X161.247 Y153.885 E2.76650
G1 X161.054 Y154.792 E2.79224
G1 X160.768 Y155.674 E2.81799
G1 X160.392 Y156.518 E2.84365
G1 X160.004 Y157.197 E2.86540
G1 X159.658 Y157.713 E2.88263
G1 X159.081 Y158.426 E2.90811
G1 X158.426 Y159.081 E2.93386
G1 X157.705 Y159.664 E2.95961
G1 X156.931 Y160.168 E2.98527
G1 X156.241 Y160.523 E3.00682
G1 X155.665 Y160.770 E3.02424
G1 X154.792 Y161.054 E3.04973
G1 X153.885 Y161.247 E3.07548
G1 X152.963 Y161.344 E3.10123
G1 X152.036 Y161.344 E3.12698
G1 X151.115 Y161.247 E3.15272
G1 X150.208 Y161.054 E3.17847
G1 X149.335 Y160.770 E3.20396
G1 X148.759 Y160.523 E3.22138
G1 X148.069 Y160.167 E3.24294
G1 X147.295 Y159.664 E3.26859
G1 X146.574 Y159.081 E3.29434
G1 X145.919 Y158.426 E3.32009
G1 X145.336 Y157.705 E3.34584
G1 X144.833 Y156.931 E3.37149
G1 X144.477 Y156.241 E3.39305
G1 X144.230 Y155.665 E3.41047
G1 X143.946 Y154.792 E3.43596
G1 X143.753 Y153.885 E3.46170
G1 X143.656 Y152.963 E3.48745
G1 X143.656 Y152.036 E3.51320
G1 X143.753 Y151.115 E3.53895
G1 X143.782 Y150.978 E3.54283
G1 X144.347 Y151.021 F7800.000
G1 F1800
G1 X144.489 Y150.353 E3.56180
G1 X144.754 Y149.538 E3.58562
G1 X144.928 Y149.117 E3.59826
G1 X145.317 Y148.353 E3.62209
G1 X145.790 Y147.625 E3.64621
G1 X146.336 Y146.950 E3.67032
G1 X146.950 Y146.336 E3.69444
G1 X147.625 Y145.790 E3.71855
G1 X148.353 Y145.317 E3.74267
G1 X149.127 Y144.923 E3.76678
G1 X149.937 Y144.612 E3.79090
G1 X150.776 Y144.387 E3.81501
G1 X151.628 Y144.252 E3.83898
G1 X152.208 Y144.214 E3.85513
G1 X152.936 Y144.218 E3.87535
G1 X153.797 Y144.308 E3.89942
G1 X154.647 Y144.488 E3.92353
G1 X155.472 Y144.757 E3.94765
G1 X156.264 Y145.109 E3.97171
G1 X156.902 Y145.474 E3.99214
G1 X157.379 Y145.794 E4.00809
G1 X158.050 Y146.336 E4.03205
G1 X158.662 Y146.949 E4.05612
G1 X159.128 Y147.518 E4.07653
G1 X159.459 Y147.988 E4.09250
G1 X159.890 Y148.735 E4.11646
G1 X160.243 Y149.528 E4.14057
G1 X160.511 Y150.353 E4.16468
G1 X160.692 Y151.202 E4.18880
G1 X160.783 Y152.066 E4.21292
G1 X160.783 Y152.934 E4.23703
G1 X160.692 Y153.798 E4.26115
G1 X160.511 Y154.647 E4.28526
G1 X160.243 Y155.472 E4.30938
G1 X159.891 Y156.264 E4.33344
G1 X159.526 Y156.902 E4.35385
G1 X159.206 Y157.379 E4.36982
G1 X158.664 Y158.050 E4.39378
G1 X158.050 Y158.664 E4.41790
G1 X157.375 Y159.210 E4.44201
G1 X156.649 Y159.682 E4.46607
G1 X156.002 Y160.016 E4.48630
G1 X155.467 Y160.245 E4.50245
G1 X154.647 Y160.511 E4.52642
G1 X153.797 Y160.692 E4.55053
G1 X152.934 Y160.783 E4.57465
G1 X152.066 Y160.783 E4.59876
G1 X151.202 Y160.692 E4.62288
G1 X150.353 Y160.511 E4.64699
G1 X149.533 Y160.245 E4.67096
G1 X148.998 Y160.016 E4.68711
G1 X148.351 Y159.682 E4.70734
G1 X147.625 Y159.210 E4.73140
G1 X146.950 Y158.664 E4.75551
G1 X146.336 Y158.050 E4.77962
G1 X145.790 Y157.375 E4.80374
G1 X145.318 Y156.649 E4.82780
G1 X144.984 Y156.001 E4.84803
G1 X144.755 Y155.467 E4.86418
G1 X144.489 Y154.647 E4.88815
G1 X144.308 Y153.798 E4.91226
G1 X144.217 Y152.934 E4.93638
G1 X144.217 Y152.066 E4.96049
G1 X144.331 Y151.095 E4.98766
G1 X144.853 Y151.129 F7800.000
G1 F1800
G1 X144.990 Y150.488 E5.00307
G1 X145.240 Y149.717 E5.02213
G1 X145.398 Y149.334 E5.03187
G1 X145.766 Y148.612 E5.05092
G1 X146.210 Y147.930 E5.07006
G1 X146.722 Y147.297 E5.08920
G1 X147.297 Y146.722 E5.10833
G1 X147.930 Y146.210 E5.12747
G1 X148.612 Y145.766 E5.14661
G1 X149.337 Y145.397 E5.16574
G1 X150.097 Y145.105 E5.18488
G1 X150.883 Y144.895 E5.20402
G1 X151.685 Y144.767 E5.22311
G1 X152.224 Y144.732 E5.23579
G1 X152.908 Y144.735 E5.25188
G1 X153.716 Y144.820 E5.27100
G1 X154.512 Y144.989 E5.29013
G1 X155.287 Y145.241 E5.30927
G1 X156.029 Y145.572 E5.32839
G1 X156.629 Y145.914 E5.34464
G1 X157.072 Y146.211 E5.35716
G1 X157.703 Y146.722 E5.37625
G1 X158.278 Y147.297 E5.39538
G1 X158.715 Y147.831 E5.41161
G1 X159.022 Y148.267 E5.42414
G1 X159.428 Y148.970 E5.44324
G1 X159.759 Y149.713 E5.46237
G1 X160.010 Y150.488 E5.48151
G1 X160.180 Y151.284 E5.50065
G1 X160.265 Y152.093 E5.51979
G1 X160.265 Y152.907 E5.53892
G1 X160.180 Y153.716 E5.55806
G1 X160.010 Y154.512 E5.57720
G1 X159.759 Y155.286 E5.59633
G1 X159.428 Y156.029 E5.61546
G1 X159.086 Y156.629 E5.63169
G1 X158.789 Y157.072 E5.64423
G1 X158.278 Y157.703 E5.66332
G1 X157.703 Y158.278 E5.68246
G1 X157.070 Y158.790 E5.70159
G1 X156.388 Y159.233 E5.72071
G1 X155.780 Y159.547 E5.73679
G1 X155.285 Y159.760 E5.74948
G1 X154.512 Y160.010 E5.76857
G1 X153.716 Y160.180 E5.78771
G1 X152.907 Y160.265 E5.80685
G1 X152.093 Y160.265 E5.82598
G1 X151.284 Y160.180 E5.84512
G1 X150.488 Y160.010 E5.86426
G1 X149.715 Y159.760 E5.88335
G1 X149.220 Y159.547 E5.89604
G1 X148.612 Y159.233 E5.91212
G1 X147.930 Y158.790 E5.93124
G1 X147.297 Y158.278 E5.95037
G1 X146.722 Y157.703 E5.96951
G1 X146.210 Y157.070 E5.98865
G1 X145.767 Y156.388 E6.00777
G1 X145.453 Y155.780 E6.02386
G1 X145.241 Y155.285 E6.03654
G1 X144.990 Y154.512 E6.05563
G1 X144.820 Y153.716 E6.07477
G1 X144.735 Y152.907 E6.09391
G1 X144.735 Y152.093 E6.11304
G1 X144.838 Y151.202 E6.13413
G1 X144.472 Y150.805 F7800.000
G1 E4.13413 F2400.00000
G92 E0
G1 X152.036 Y56.344 F7800.000
G1 E2.00000 F2400.00000
G1 F1800
G1 X151.115 Y56.247 E2.02575
G1 X150.208 Y56.054 E2.05150
G1 X149.326 Y55.768 E2.07724
G1 X148.482 Y55.392 E2.10291
G1 X147.802 Y55.004 E2.12466
G1 X147.287 Y54.658 E2.14189
G1 X146.574 Y54.081 E2.16736
G1 X145.919 Y53.426 E2.19311
G1 X145.347 Y52.719 E2.21837
G1 X145.064 Y52.308 E2.23223
G1 X144.609 Y51.520 E2.25749
G1 X144.232 Y50.674 E2.28324
G1 X143.946 Y49.792 E2.30899
G1 X143.753 Y48.885 E2.33473
G1 X143.656 Y47.963 E2.36048
G1 X143.656 Y47.037 E2.38623
G1 X143.753 Y46.115 E2.41198
G1 X143.946 Y45.208 E2.43772
G1 X144.232 Y44.326 E2.46347
G1 X144.602 Y43.496 E2.48873
G1 X144.840 Y43.057 E2.50260
G1 X145.336 Y42.295 E2.52785
G1 X145.919 Y41.574 E2.55360
G1 X146.574 Y40.919 E2.57935
G1 X147.295 Y40.336 E2.60509
G1 X148.072 Y39.831 E2.63084
G1 X148.898 Y39.410 E2.65659
G1 X149.763 Y39.078 E2.68234
G1 X150.659 Y38.838 E2.70809
G1 X151.565 Y38.694 E2.73358
G1 X152.191 Y38.653 E2.75100
G1 X152.967 Y38.657 E2.77256
G1 X153.885 Y38.753 E2.79821
G1 X154.792 Y38.946 E2.82396
G1 X155.674 Y39.232 E2.84970
G1 X156.518 Y39.608 E2.87537
G1 X157.197 Y39.996 E2.89711
G1 X157.713 Y40.342 E2.91435
G1 X158.426 Y40.919 E2.93982
G1 X159.081 Y41.574 E2.96558
G1 X159.664 Y42.295 E2.99133
G1 X160.167 Y43.069 E3.01698
G1 X160.523 Y43.759 E3.03854
G1 X160.770 Y44.335 E3.05595
G1 X161.054 Y45.208 E3.08144
G1 X161.247 Y46.115 E3.10720
G1 X161.342 Y47.019 E3.13245
G1 X161.355 Y47.518 E3.14631
G1 X161.307 Y48.426 E3.17157
G1 X161.162 Y49.341 E3.19731
G1 X160.922 Y50.237 E3.22306
G1 X160.590 Y51.102 E3.24881
G1 X160.169 Y51.928 E3.27456
G1 X159.664 Y52.705 E3.30031
