; generated by Slic3r 1.3.0 on 2024-07-09 at 08:27:34

; external perimeters extrusion width = 0.55mm (7.28mm^3/s)
; perimeters extrusion width = 0.70mm (11.44mm^3/s)
; infill extrusion width = 0.63mm (13.45mm^3/s)
; solid infill extrusion width = 0.70mm (3.81mm^3/s)
; top infill extrusion width = 0.70mm (2.86mm^3/s)

M107
M104 S200 ; set temperature
G28 ; home all axes
G1 Z5 F5000 ; lift nozzle

; Filament gcode

M109 S200 ; set temperature and wait for it to be reached
G21 ; set units to millimeters
G90 ; use absolute coordinates
M82 ; use absolute distances for extrusion
G92 E0
G1 Z0.350 F7800.000
G1 E-2.00000 F2400.00000
G92 E0
G1 X37.731 Y36.771 F7800.000
G1 E2.00000 F2400.00000
G1 F1800
G1 X38.552 Y35.992 E2.03144
G1 X39.156 Y35.487 E2.05332
G1 X39.788 Y35.014 E2.07523
G1 X40.443 Y34.575 E2.09714
G1 X41.117 Y34.171 E2.11897
G1 X42.219 Y33.610 E2.15331
G1 X42.945 Y33.300 E2.17525
G1 X43.679 Y33.030 E2.19697
G1 X44.768 Y32.707 E2.22852
G1 X45.537 Y32.532 E2.25042
G1 X46.315 Y32.397 E2.27237
G1 X47.097 Y32.303 E2.29424
G1 X47.880 Y32.251 E2.31604
G1 X48.500 Y32.237 E2.33327
G1 X151.500 Y32.237 E5.19438
G1 X152.120 Y32.251 E5.21160
G1 X152.903 Y32.303 E5.23340
G1 X153.685 Y32.397 E5.25527
G1 X154.463 Y32.532 E5.27721
G1 X155.232 Y32.708 E5.29913
G1 X155.991 Y32.923 E5.32103
G1 X156.737 Y33.178 E5.34293
G1 X157.468 Y33.471 E5.36481
G1 X158.183 Y33.802 E5.38669
G1 X158.881 Y34.171 E5.40864
G1 X159.558 Y34.575 E5.43052
G1 X160.209 Y35.012 E5.45231
G1 X161.110 Y35.703 E5.48385
G1 X161.703 Y36.221 E5.50573
G1 X162.270 Y36.771 E5.52766
G1 X162.806 Y37.349 E5.54957
G1 X163.311 Y37.954 E5.57145
G1 X164.037 Y38.954 E5.60578
G1 X164.458 Y39.623 E5.62773
G1 X164.837 Y40.304 E5.64939
G1 X165.327 Y41.330 E5.68096
G1 X165.618 Y42.055 E5.70266
G1 X165.875 Y42.807 E5.72474
G1 X166.194 Y43.998 E5.75900
G1 X166.400 Y45.113 E5.79048
G1 X166.494 Y45.895 E5.81236
G1 X166.547 Y46.679 E5.83420
G1 X166.561 Y47.298 E5.85139
G1 X166.561 Y152.485 E8.77325
G1 X166.547 Y153.105 E8.79048
G1 X166.494 Y153.888 E8.81228
G1 X166.400 Y154.670 E8.83415
G1 X166.265 Y155.450 E8.85617
G1 X166.089 Y156.222 E8.87815
G1 X165.875 Y156.975 E8.89989
G1 X165.618 Y157.725 E8.92192
G1 X165.327 Y158.452 E8.94368
G1 X164.837 Y159.478 E8.97525
G1 X164.457 Y160.160 E8.99694
G1 X164.035 Y160.831 E9.01895
G1 X163.583 Y161.473 E9.04077
G1 X163.095 Y162.095 E9.06273
G1 X162.577 Y162.688 E9.08459
G1 X162.027 Y163.254 E9.10653
G1 X161.448 Y163.791 E9.12847
G1 X160.845 Y164.294 E9.15029
G1 X159.844 Y165.021 E9.18463
G1 X159.175 Y165.442 E9.20660
G1 X158.495 Y165.821 E9.22823
G1 X157.466 Y166.312 E9.25988
G1 X156.311 Y166.755 E9.29425
G1 X155.558 Y166.987 E9.31614
G1 X154.799 Y167.179 E9.33788
G1 X154.025 Y167.331 E9.35979
G1 X153.246 Y167.443 E9.38164
G1 X152.118 Y167.532 E9.41308
G1 X151.500 Y167.546 E9.43026
G1 X48.500 Y167.546 E12.29137
G1 X47.878 Y167.532 E12.30864
G1 X47.098 Y167.479 E12.33037
G1 X46.308 Y167.384 E12.35248
G1 X45.533 Y167.249 E12.37431
G1 X44.764 Y167.074 E12.39623
G1 X44.010 Y166.859 E12.41802
G1 X43.257 Y166.602 E12.44010
G1 X42.534 Y166.312 E12.46176
G1 X41.811 Y165.978 E12.48387
G1 X41.112 Y165.607 E12.50586
G1 X40.442 Y165.207 E12.52751
G1 X39.792 Y164.771 E12.54927
G1 X39.156 Y164.294 E12.57136
G1 X38.555 Y163.794 E12.59307
G1 X37.730 Y163.010 E12.62469
G1 X37.195 Y162.434 E12.64652
G1 X36.690 Y161.829 E12.66840
G1 X36.216 Y161.197 E12.69036
G1 X35.777 Y160.542 E12.71225
G1 X35.373 Y159.866 E12.73414
G1 X35.004 Y159.168 E12.75608
G1 X34.501 Y158.038 E12.79043
G1 X34.231 Y157.301 E12.81223
G1 X34.000 Y156.552 E12.83400
G1 X33.735 Y155.451 E12.86546
G1 X33.600 Y154.671 E12.88745
G1 X33.506 Y153.891 E12.90928
G1 X33.453 Y153.105 E12.93116
G1 X33.439 Y152.485 E12.94839
G1 X33.439 Y47.298 E15.87025
G1 X33.453 Y46.680 E15.88740
G1 X33.542 Y45.549 E15.91894
G1 X33.653 Y44.773 E15.94069
G1 X33.806 Y44.000 E15.96259
G1 X34.125 Y42.807 E15.99689
G1 X34.380 Y42.061 E16.01880
G1 X34.674 Y41.328 E16.04071
G1 X35.161 Y40.307 E16.07214
G1 X35.544 Y39.620 E16.09400
G1 X35.964 Y38.953 E16.11589
G1 X36.690 Y37.953 E16.15022
G1 X37.195 Y37.349 E16.17209
G1 X37.679 Y36.825 E16.19190
G1 E14.19190 F2400.00000
G92 E0
G1 X50.512 Y144.974 F7800.000
G1 E2.00000 F2400.00000
G1 F1800
G1 X51.287 Y145.226 E2.01914
G1 X52.030 Y145.557 E2.03827
G1 X52.707 Y145.946 E2.05664
G1 X53.073 Y146.196 E2.06706
G1 X53.703 Y146.706 E2.08612
G1 X54.278 Y147.282 E2.10526
G1 X54.791 Y147.914 E2.12440
G1 X55.233 Y148.595 E2.14349
G1 X55.491 Y149.086 E2.15653
G1 X55.759 Y149.699 E2.17226
G1 X56.011 Y150.472 E2.19138
G1 X56.180 Y151.268 E2.21051
G1 X56.265 Y152.078 E2.22965
G1 X56.265 Y152.892 E2.24879
G1 X56.180 Y153.701 E2.26793
G1 X56.011 Y154.497 E2.28706
G1 X55.759 Y155.271 E2.30620
G1 X55.428 Y156.014 E2.32532
G1 X55.115 Y156.566 E2.34025
G1 X54.790 Y157.056 E2.35408
G1 X54.278 Y157.687 E2.37318
G1 X53.703 Y158.263 E2.39232
G1 X53.070 Y158.775 E2.41146
G1 X52.389 Y159.217 E2.43055
G1 X51.910 Y159.470 E2.44328
G1 X51.286 Y159.744 E2.45932
G1 X50.512 Y159.995 E2.47844
G1 X49.716 Y160.164 E2.49758
G1 X48.907 Y160.249 E2.51671
G1 X48.094 Y160.249 E2.53583
G1 X47.410 Y160.181 E2.55200
G1 X46.882 Y160.090 E2.56460
G1 X46.092 Y159.878 E2.58382
G1 X45.338 Y159.588 E2.60283
G1 X44.612 Y159.218 E2.62197
G1 X43.930 Y158.775 E2.64111
G1 X43.297 Y158.263 E2.66024
G1 X42.723 Y157.689 E2.67934
G1 X42.372 Y157.267 E2.69224
G1 X41.979 Y156.719 E2.70810
G1 X41.572 Y156.015 E2.72722
G1 X41.241 Y155.271 E2.74636
G1 X40.990 Y154.497 E2.76550
G1 X40.820 Y153.701 E2.78463
G1 X40.735 Y152.892 E2.80377
G1 X40.735 Y152.078 E2.82291
G1 X40.820 Y151.268 E2.84205
G1 X40.990 Y150.472 E2.86118
G1 X41.241 Y149.698 E2.88032
G1 X41.572 Y148.956 E2.89943
G1 X41.885 Y148.403 E2.91436
G1 X42.211 Y147.913 E2.92820
G1 X42.722 Y147.282 E2.94730
G1 X43.297 Y146.706 E2.96644
G1 X43.930 Y146.194 E2.98558
G1 X44.612 Y145.751 E3.00471
G1 X45.338 Y145.381 E3.02385
G1 X46.097 Y145.090 E3.04299
G1 X46.884 Y144.879 E3.06213
G1 X47.686 Y144.752 E3.08122
G1 X48.240 Y144.716 E3.09427
G1 X48.908 Y144.720 E3.10999
G1 X49.716 Y144.805 E3.12911
G1 X50.439 Y144.959 E3.14648
G1 X50.512 Y144.974 F7800.000
G1 X50.626 Y144.551 F7800.000
G1 F1800
G1 X51.042 Y144.663 E3.15660
G1 X51.845 Y144.971 E3.17685
G1 X52.612 Y145.362 E3.19709
G1 X53.334 Y145.831 E3.21733
G1 X54.003 Y146.373 E3.23757
G1 X54.612 Y146.981 E3.25782
G1 X55.154 Y147.650 E3.27806
G1 X55.623 Y148.372 E3.29830
G1 X56.014 Y149.139 E3.31854
G1 X56.322 Y149.943 E3.33878
G1 X56.444 Y150.352 E3.34883
G1 X56.624 Y151.198 E3.36916
G1 X56.713 Y152.054 E3.38940
G1 X56.713 Y152.915 E3.40964
G1 X56.624 Y153.771 E3.42989
G1 X56.445 Y154.613 E3.45013
G1 X56.178 Y155.432 E3.47037
G1 X55.828 Y156.219 E3.49061
G1 X55.396 Y156.967 E3.51094
G1 X55.156 Y157.316 E3.52090
G1 X54.612 Y157.988 E3.54122
G1 X54.003 Y158.597 E3.56147
G1 X53.334 Y159.138 E3.58171
G1 X52.616 Y159.605 E3.60186
G1 X51.842 Y160.000 E3.62228
G1 X51.447 Y160.163 E3.63233
G1 X50.629 Y160.429 E3.65256
G1 X49.787 Y160.608 E3.67281
G1 X48.931 Y160.698 E3.69305
G1 X48.066 Y160.698 E3.71338
G1 X47.644 Y160.665 E3.72334
G1 X46.790 Y160.530 E3.74366
G1 X45.959 Y160.307 E3.76391
G1 X45.155 Y159.998 E3.78415
G1 X44.388 Y159.607 E3.80439
G1 X43.666 Y159.138 E3.82464
G1 X42.997 Y158.597 E3.84488
G1 X42.388 Y157.988 E3.86512
G1 X41.846 Y157.319 E3.88536
G1 X41.377 Y156.597 E3.90561
G1 X40.987 Y155.830 E3.92585
G1 X40.678 Y155.026 E3.94609
G1 X40.556 Y154.617 E3.95613
G1 X40.377 Y153.771 E3.97646
G1 X40.287 Y152.915 E3.99670
G1 X40.287 Y152.054 E4.01694
G1 X40.377 Y151.198 E4.03719
G1 X40.556 Y150.356 E4.05743
G1 X40.822 Y149.537 E4.07767
G1 X41.172 Y148.751 E4.09791
G1 X41.375 Y148.375 E4.10796
G1 X41.846 Y147.650 E4.12829
G1 X42.388 Y146.981 E4.14853
G1 X42.997 Y146.373 E4.16877
G1 X43.666 Y145.831 E4.18901
G1 X44.388 Y145.362 E4.20925
G1 X44.763 Y145.158 E4.21930
G1 X45.556 Y144.805 E4.23972
G1 X46.371 Y144.540 E4.25987
G1 X47.213 Y144.361 E4.28011
G1 X48.070 Y144.271 E4.30035
G1 X48.926 Y144.271 E4.32050
G1 X49.360 Y144.305 E4.33073
G1 X50.210 Y144.440 E4.35097
G1 X50.553 Y144.532 E4.35932
G1 X50.747 Y144.964 F7800.000
G1 E2.35932 F2400.00000
G92 E0
G1 X143.735 Y152.078 F7800.000
G1 E2.00000 F2400.00000
G1 F1800
G1 X143.820 Y151.268 E2.01914
G1 X143.990 Y150.472 E2.03828
G1 X144.241 Y149.698 E2.05741
G1 X144.572 Y148.956 E2.07653
G1 X144.885 Y148.403 E2.09145
G1 X145.211 Y147.913 E2.10529
G1 X145.722 Y147.282 E2.12440
G1 X146.297 Y146.706 E2.14353
G1 X146.930 Y146.194 E2.16267
G1 X147.612 Y145.751 E2.18181
G1 X148.337 Y145.381 E2.20094
G1 X149.097 Y145.090 E2.22008
G1 X149.883 Y144.879 E2.23922
G1 X150.686 Y144.752 E2.25831
G1 X151.239 Y144.716 E2.27137
G1 X151.908 Y144.720 E2.28708
G1 X152.716 Y144.805 E2.30620
G1 X153.512 Y144.974 E2.32533
G1 X154.287 Y145.226 E2.34447
G1 X155.030 Y145.557 E2.36361
G1 X155.707 Y145.946 E2.38197
G1 X156.073 Y146.196 E2.39239
G1 X156.703 Y146.706 E2.41146
G1 X157.278 Y147.282 E2.43059
G1 X157.790 Y147.914 E2.44973
G1 X158.233 Y148.595 E2.46883
G1 X158.490 Y149.086 E2.48185
G1 X158.759 Y149.699 E2.49759
G1 X159.010 Y150.472 E2.51671
G1 X159.180 Y151.268 E2.53585
G1 X159.265 Y152.078 E2.55499
G1 X159.265 Y152.892 E2.57412
G1 X159.180 Y153.701 E2.59326
G1 X159.010 Y154.497 E2.61240
G1 X158.759 Y155.271 E2.63154
G1 X158.428 Y156.014 E2.65065
G1 X158.115 Y156.566 E2.66558
G1 X157.790 Y157.056 E2.67941
G1 X157.278 Y157.687 E2.69851
G1 X156.703 Y158.263 E2.71765
G1 X156.070 Y158.775 E2.73679
G1 X155.389 Y159.217 E2.75588
G1 X154.910 Y159.470 E2.76861
G1 X154.286 Y159.744 E2.78465
G1 X153.512 Y159.995 E2.80377
G1 X152.716 Y160.164 E2.82291
G1 X151.907 Y160.249 E2.84205
G1 X151.094 Y160.249 E2.86117
G1 X150.410 Y160.181 E2.87734
G1 X149.882 Y160.090 E2.88994
G1 X149.092 Y159.878 E2.90916
G1 X148.337 Y159.588 E2.92816
G1 X147.612 Y159.218 E2.94730
G1 X146.930 Y158.775 E2.96644
G1 X146.297 Y158.263 E2.98558
G1 X145.723 Y157.689 E3.00467
G1 X145.372 Y157.267 E3.01758
G1 X144.979 Y156.719 E3.03344
G1 X144.572 Y156.015 E3.05256
G1 X144.241 Y155.271 E3.07169
G1 X143.990 Y154.497 E3.09083
G1 X143.820 Y153.701 E3.10997
G1 X143.735 Y152.892 E3.12911
G1 X143.735 Y152.153 E3.14648
G1 X143.735 Y152.078 F7800.000
G1 X143.289 Y152.031 F7800.000
G1 F1800
G1 X143.377 Y151.198 E3.16617
G1 X143.556 Y150.356 E3.18641
G1 X143.822 Y149.537 E3.20666
G1 X144.172 Y148.751 E3.22689
G1 X144.377 Y148.372 E3.23703
G1 X144.848 Y147.647 E3.25736
G1 X145.388 Y146.981 E3.27751
G1 X145.997 Y146.373 E3.29775
G1 X146.666 Y145.831 E3.31800
G1 X147.387 Y145.362 E3.33823
G1 X147.763 Y145.158 E3.34828
G1 X148.556 Y144.805 E3.36870
G1 X149.371 Y144.540 E3.38885
G1 X150.213 Y144.361 E3.40909
G1 X151.070 Y144.271 E3.42934
G1 X151.926 Y144.271 E3.44948
G1 X152.360 Y144.305 E3.45971
G1 X153.210 Y144.440 E3.47995
G1 X154.042 Y144.663 E3.50019
G1 X154.845 Y144.971 E3.52043
G1 X155.612 Y145.362 E3.54068
G1 X156.334 Y145.831 E3.56092
G1 X157.003 Y146.373 E3.58116
G1 X157.612 Y146.981 E3.60140
G1 X158.154 Y147.650 E3.62165
G1 X158.623 Y148.372 E3.64189
G1 X159.014 Y149.139 E3.66213
G1 X159.322 Y149.943 E3.68238
G1 X159.546 Y150.778 E3.70270
G1 X159.623 Y151.194 E3.71266
G1 X159.713 Y152.054 E3.73299
G1 X159.713 Y152.915 E3.75323
G1 X159.623 Y153.771 E3.77347
G1 X159.444 Y154.613 E3.79372
G1 X159.178 Y155.432 E3.81396
G1 X158.828 Y156.219 E3.83420
G1 X158.396 Y156.967 E3.85453
G1 X158.154 Y157.319 E3.86458
G1 X157.612 Y157.988 E3.88481
G1 X157.003 Y158.597 E3.90506
G1 X156.334 Y159.138 E3.92530
G1 X155.616 Y159.605 E3.94545
G1 X154.842 Y160.000 E3.96587
G1 X154.447 Y160.163 E3.97592
G1 X153.629 Y160.429 E3.99615
G1 X152.787 Y160.608 E4.01640
G1 X151.930 Y160.698 E4.03664
G1 X151.066 Y160.698 E4.05697
G1 X150.644 Y160.665 E4.06692
G1 X149.790 Y160.529 E4.08725
G1 X148.958 Y160.307 E4.10749
G1 X148.155 Y159.998 E4.12774
G1 X147.388 Y159.607 E4.14798
G1 X146.666 Y159.138 E4.16822
G1 X145.997 Y158.597 E4.18847
G1 X145.388 Y157.988 E4.20871
G1 X144.846 Y157.319 E4.22895
G1 X144.377 Y156.597 E4.24919
G1 X143.986 Y155.830 E4.26944
G1 X143.678 Y155.026 E4.28968
G1 X143.455 Y154.195 E4.30992
G1 X143.320 Y153.345 E4.33016
G1 X143.287 Y152.919 E4.34021
G1 X143.287 Y152.106 E4.35932
G1 X143.737 Y151.808 F7800.000
G1 E2.35932 F2400.00000
G92 E0
G1 X151.094 Y55.062 F7800.000
G1 E2.00000 F2400.00000
G1 F1800
G1 X150.410 Y54.994 E2.01617
G1 X149.882 Y54.902 E2.02877
G1 X149.092 Y54.690 E2.04799
G1 X148.337 Y54.401 E2.06700
G1 X147.612 Y54.031 E2.08613
G1 X146.930 Y53.588 E2.10527
G1 X146.297 Y53.076 E2.12441
G1 X145.722 Y52.500 E2.14354
G1 X145.247 Y51.916 E2.16125
G1 X144.978 Y51.530 E2.17232
G1 X144.572 Y50.827 E2.19139
G1 X144.241 Y50.084 E2.21053
G1 X143.990 Y49.310 E2.22967
G1 X143.820 Y48.514 E2.24880
G1 X143.735 Y47.704 E2.26794
G1 X143.735 Y46.891 E2.28708
G1 X143.820 Y46.081 E2.30622
G1 X143.990 Y45.285 E2.32535
G1 X144.241 Y44.511 E2.34449
G1 X144.572 Y43.769 E2.36360
G1 X144.885 Y43.216 E2.37853
G1 X145.210 Y42.726 E2.39237
G1 X145.722 Y42.095 E2.41147
G1 X146.297 Y41.519 E2.43061
G1 X146.930 Y41.007 E2.44975
G1 X147.612 Y40.564 E2.46888
G1 X148.338 Y40.194 E2.48802
G1 X149.097 Y39.903 E2.50716
G1 X149.883 Y39.692 E2.52629
G1 X150.686 Y39.565 E2.54539
G1 X151.239 Y39.529 E2.55844
G1 X151.908 Y39.533 E2.57416
G1 X152.716 Y39.618 E2.59327
G1 X153.512 Y39.787 E2.61241
G1 X154.286 Y40.039 E2.63155
G1 X155.030 Y40.370 E2.65068
G1 X155.707 Y40.759 E2.66905
G1 X156.073 Y41.009 E2.67947
G1 X156.703 Y41.519 E2.69853
G1 X157.278 Y42.095 E2.71767
G1 X157.790 Y42.727 E2.73681
G1 X158.233 Y43.408 E2.75590
G1 X158.490 Y43.899 E2.76893
G1 X158.759 Y44.512 E2.78467
G1 X159.010 Y45.285 E2.80379
G1 X159.180 Y46.081 E2.82292
G1 X159.265 Y46.891 E2.84206
G1 X159.265 Y47.704 E2.86120
G1 X159.180 Y48.514 E2.88034
G1 X159.010 Y49.310 E2.89947
G1 X158.759 Y50.084 E2.91861
G1 X158.428 Y50.827 E2.93773
G1 X158.115 Y51.379 E2.95266
G1 X157.790 Y51.869 E2.96649
G1 X157.278 Y52.500 E2.98559
G1 X156.703 Y53.076 E3.00473
G1 X156.070 Y53.588 E3.02387
G1 X155.389 Y54.030 E3.04296
G1 X154.910 Y54.282 E3.05569
G1 X154.286 Y54.557 E3.07173
G1 X153.512 Y54.808 E3.09085
G1 X152.716 Y54.977 E3.10999
G1 X151.907 Y55.062 E3.12912
G1 X151.169 Y55.062 E3.14648
G1 X151.094 Y55.062 F7800.000
G1 X151.094 Y55.511 F7800.000
G1 F1800
G1 X150.644 Y55.478 E3.15709
G1 X149.790 Y55.342 E3.17742
G1 X148.958 Y55.120 E3.19766
G1 X148.155 Y54.811 E3.21790
G1 X147.388 Y54.420 E3.23815
G1 X146.666 Y53.951 E3.25839
G1 X145.997 Y53.410 E3.27863
G1 X145.388 Y52.801 E3.29887
G1 X144.846 Y52.132 E3.31912
G1 X144.377 Y51.410 E3.33936
G1 X143.986 Y50.643 E3.35960
G1 X143.678 Y49.839 E3.37984
G1 X143.455 Y49.007 E3.40009
G1 X143.320 Y48.158 E3.42032
G1 X143.287 Y47.728 E3.43046
G1 X143.287 Y46.867 E3.45070
G1 X143.377 Y46.011 E3.47094
G1 X143.556 Y45.169 E3.49119
G1 X143.822 Y44.350 E3.51143
G1 X144.172 Y43.564 E3.53166
G1 X144.377 Y43.185 E3.54180
G1 X144.848 Y42.460 E3.56213
G1 X145.388 Y41.794 E3.58228
G1 X145.997 Y41.185 E3.60252
G1 X146.666 Y40.644 E3.62277
G1 X147.387 Y40.175 E3.64301
G1 X147.763 Y39.971 E3.65305
G1 X148.553 Y39.619 E3.67338
G1 X149.371 Y39.353 E3.69362
G1 X150.213 Y39.174 E3.71386
G1 X151.070 Y39.084 E3.73411
G1 X151.926 Y39.084 E3.75426
G1 X152.356 Y39.117 E3.76439
G1 X153.210 Y39.253 E3.78472
G1 X154.042 Y39.475 E3.80496
G1 X154.845 Y39.784 E3.82521
G1 X155.612 Y40.175 E3.84545
G1 X156.334 Y40.644 E3.86569
G1 X157.003 Y41.185 E3.88593
G1 X157.612 Y41.794 E3.90618
G1 X158.154 Y42.463 E3.92642
G1 X158.623 Y43.185 E3.94666
G1 X159.014 Y43.952 E3.96690
G1 X159.322 Y44.756 E3.98715
G1 X159.546 Y45.591 E4.00748
G1 X159.623 Y46.007 E4.01743
G1 X159.713 Y46.867 E4.03776
G1 X159.713 Y47.728 E4.05800
G1 X159.623 Y48.584 E4.07825
G1 X159.444 Y49.426 E4.09849
G1 X159.178 Y50.245 E4.11873
G1 X158.828 Y51.031 E4.13897
G1 X158.396 Y51.780 E4.15930
G1 X158.154 Y52.132 E4.16935
G1 X157.612 Y52.801 E4.18958
G1 X157.003 Y53.410 E4.20983
G1 X156.334 Y53.951 E4.23007
G1 X155.612 Y54.420 E4.25031
G1 X154.842 Y54.813 E4.27064
G1 X154.451 Y54.975 E4.28060
G1 X153.629 Y55.242 E4.30092
G1 X152.787 Y55.421 E4.32117
G1 X151.930 Y55.511 E4.34141
G1 X151.169 Y55.511 E4.35932
G1 X151.079 Y55.487 F7800.000
