; generated by Slic3r 1.3.0 on 2024-07-09 at 08:22:23

; external perimeters extrusion width = 0.55mm (7.28mm^3/s)
; perimeters extrusion width = 0.70mm (11.44mm^3/s)
; infill extrusion width = 0.63mm (13.45mm^3/s)
; solid infill extrusion width = 0.70mm (3.81mm^3/s)
; top infill extrusion width = 0.70mm (2.86mm^3/s)

M107
M104 S200 ; set temperature
G28 ; home all axes
G1 Z5 F5000 ; lift nozzle

; Filament gcode

M109 S200 ; set temperature and wait for it to be reached
G21 ; set units to millimeters
G90 ; use absolute coordinates
M82 ; use absolute distances for extrusion
G92 E0
G1 Z0.350 F7800.000
G1 E-2.00000 F2400.00000
G92 E0
G1 X60.142 Y25.424 F7800.000
G1 E2.00000 F2400.00000
G1 F1800
G1 X62.000 Y24.099 E2.06340
G1 X64.821 Y23.462 E2.14373
G1 X134.976 Y23.462 E4.09248
G1 X137.223 Y23.859 E4.15587
G1 X139.658 Y25.427 E4.23633
G1 X174.660 Y61.089 E5.62434
G1 X175.951 Y62.971 E5.68773
G1 X176.538 Y65.685 E5.76486
G1 X176.538 Y134.620 E7.67974
G1 X176.141 Y136.868 E7.74314
G1 X174.692 Y139.182 E7.81898
G1 X173.106 Y140.820 E7.88232
G1 X141.465 Y172.461 E9.12529
G1 X139.206 Y174.669 E9.21303
G1 X137.322 Y175.956 E9.27643
G1 X134.620 Y176.538 E9.35319
G1 X65.126 Y176.538 E11.28359
G1 X62.878 Y176.141 E11.34699
G1 X60.486 Y174.616 E11.42578
G1 X28.201 Y142.331 E12.69409
G1 X25.378 Y139.477 E12.80559
G1 X24.174 Y137.797 E12.86300
G1 X23.462 Y134.823 E12.94792
G1 X23.462 Y65.431 E14.87550
G1 X23.859 Y63.183 E14.93890
G1 X25.344 Y60.832 E15.01615
G1 X60.089 Y25.478 E16.39308
G1 E14.39308 F2400.00000
G92 E0
G1 X86.343 Y143.629 F7800.000
G1 E2.00000 F2400.00000
G1 F1800
G1 X86.343 Y156.345 E2.35321
G1 X63.619 Y156.345 E2.98440
G1 X63.619 Y143.629 E3.33761
G1 X86.268 Y143.629 E3.96673
G1 X85.782 Y144.190 F7800.000
G1 F1800
G1 X85.782 Y155.784 E4.28877
G1 X64.180 Y155.784 E4.88880
G1 X64.180 Y144.190 E5.21084
G1 X85.707 Y144.190 E5.80879
G1 X85.264 Y144.708 F7800.000
G1 F1800
G1 X85.264 Y155.266 E6.05704
G1 X64.698 Y155.266 E6.54061
G1 X64.698 Y144.708 E6.78886
G1 X85.189 Y144.708 E7.27067
G1 X85.757 Y144.630 F7800.000
G1 E5.27067 F2400.00000
G92 E0
G1 X113.657 Y143.629 F7800.000
G1 E2.00000 F2400.00000
G1 F1800
G1 X136.330 Y143.629 E2.62979
G1 X136.330 Y156.345 E2.98299
G1 X113.657 Y156.345 E3.61278
G1 X113.657 Y143.704 E3.96390
G1 X114.218 Y144.190 F7800.000
G1 F1800
G1 X135.769 Y144.190 E4.56252
G1 X135.769 Y155.784 E4.88456
G1 X114.218 Y155.784 E5.48318
G1 X114.218 Y144.265 E5.80314
G1 X114.736 Y144.708 F7800.000
G1 F1800
G1 X135.251 Y144.708 E6.28552
G1 X135.251 Y155.266 E6.53377
G1 X114.736 Y155.266 E7.01615
G1 X114.736 Y144.783 E7.26264
G1 X114.558 Y144.241 F7800.000
G1 E5.26264 F2400.00000
G92 E0
G1 X113.657 Y56.371 F7800.000
G1 E2.00000 F2400.00000
G1 F1800
G1 X113.657 Y43.655 E2.35321
G1 X136.330 Y43.655 E2.98299
G1 X136.330 Y56.371 E3.33620
G1 X113.732 Y56.371 E3.96390
G1 X114.218 Y55.810 F7800.000
G1 F1800
G1 X114.218 Y44.216 E4.28595
G1 X135.769 Y44.216 E4.88457
G1 X135.769 Y55.810 E5.20661
G1 X114.293 Y55.810 E5.80314
G1 X114.736 Y55.292 F7800.000
G1 F1800
G1 X114.736 Y44.734 E6.05140
G1 X135.251 Y44.734 E6.53377
G1 X135.251 Y55.292 E6.78203
G1 X114.811 Y55.292 E7.26264
G1 X114.243 Y55.370 F7800.000
G1 E5.26264 F2400.00000
G92 E0
G1 X86.343 Y56.371 F7800.000
G1 E2.00000 F2400.00000
G1 F1800
G1 X63.619 Y56.371 E2.63120
G1 X63.619 Y43.655 E2.98441
G1 X86.343 Y43.655 E3.61560
G1 X86.343 Y56.296 E3.96673
G1 X85.782 Y55.810 F7800.000
G1 F1800
G1 X64.180 Y55.810 E4.56676
G1 X64.180 Y44.216 E4.88880
G1 X85.782 Y44.216 E5.48883
G1 X85.782 Y55.735 E5.80879
G1 X85.264 Y55.292 F7800.000
G1 F1800
G1 X64.698 Y55.292 E6.29236
G1 X64.698 Y44.734 E6.54061
G1 X85.264 Y44.734 E7.02418
G1 X85.264 Y55.217 E7.27067
G1 X85.442 Y55.759 F7800.000
G1 E5.27067 F2400.00000
G92 E0
G1 X63.417 Y34.795 F7800.000
G1 E2.00000 F2400.00000
G1 F1800
G1 X63.417 Y33.951 E2.02342
G1 X65.991 Y31.377 E2.12455
G1 X133.757 Y31.378 E4.00694
G1 X135.904 Y33.475 E4.09030
G1 X143.769 Y41.340 E4.39927
G1 X143.769 Y41.666 E4.40833
G1 X144.070 Y41.817 E4.41768
G1 X144.070 Y42.484 E4.43622
G1 X144.913 Y42.484 E4.45965
G1 X144.973 Y42.544 E4.46199
G1 X144.973 Y42.870 E4.47105
G1 X145.461 Y43.115 E4.48623
G1 X145.612 Y43.228 E4.49146
G1 X145.548 Y43.292 E4.49399
G1 X145.459 Y43.470 E4.49953
G1 X145.117 Y43.910 E4.51500
G1 X144.808 Y44.477 E4.53293
G1 X144.606 Y44.745 E4.54226
G1 X144.357 Y45.367 E4.56086
G1 X144.215 Y45.652 E4.56972
G1 X144.103 Y46.099 E4.58251
G1 X143.937 Y46.485 E4.59417
G1 X143.681 Y47.827 E4.63213
G1 X143.681 Y48.044 E4.63814
G1 X143.629 Y48.352 E4.64682
G1 X143.629 Y49.359 E4.67479
G1 X143.680 Y49.614 E4.68202
G1 X143.680 Y49.888 E4.68962
G1 X143.852 Y50.631 E4.71080
G1 X143.918 Y51.158 E4.72556
G1 X144.036 Y51.434 E4.73390
G1 X144.036 Y51.518 E4.73624
G1 X144.458 Y52.574 E4.76782
G1 X144.655 Y52.967 E4.78004
G1 X145.132 Y53.802 E4.80675
G1 X145.907 Y54.756 E4.84089
G1 X146.874 Y55.723 E4.87888
G1 X147.063 Y55.817 E4.88474
G1 X147.261 Y56.007 E4.89237
G1 X147.800 Y56.307 E4.90951
G1 X147.998 Y56.455 E4.91638
G1 X148.489 Y56.736 E4.93209
G1 X149.778 Y57.285 E4.97099
G1 X150.032 Y57.336 E4.97819
G1 X150.286 Y57.437 E4.98579
G1 X150.793 Y57.539 E5.00016
G1 X150.945 Y57.539 E5.00438
G1 X151.196 Y57.589 E5.01149
G1 X151.313 Y57.590 E5.01473
G1 X151.872 Y57.691 E5.03052
G1 X153.144 Y57.691 E5.06586
G1 X153.398 Y57.641 E5.07305
G1 X153.520 Y57.641 E5.07644
G1 X154.487 Y57.492 E5.10363
G1 X154.620 Y57.427 E5.10773
G1 X154.875 Y57.376 E5.11496
G1 X154.958 Y57.334 E5.11752
G1 X155.220 Y57.291 E5.12490
G1 X156.502 Y56.742 E5.16366
G1 X157.099 Y56.410 E5.18263
G1 X157.310 Y56.252 E5.18995
G1 X157.749 Y56.002 E5.20398
G1 X157.941 Y55.817 E5.21137
G1 X158.140 Y55.713 E5.21762
G1 X159.706 Y57.280 E5.27917
G1 X159.839 Y57.479 E5.28582
G1 X159.839 Y58.254 E5.30735
G1 X160.678 Y58.254 E5.33066
G1 X168.623 Y66.243 E5.64363
G1 X168.623 Y134.072 E7.52778
G1 X167.753 Y134.972 E7.56256
G1 X166.917 Y134.972 E7.58576
G1 X166.917 Y135.022 E7.58716
G1 X166.867 Y135.022 E7.58855
G1 X166.867 Y135.123 E7.59134
G1 X166.767 Y135.123 E7.59412
G1 X166.767 Y135.223 E7.59691
G1 X166.666 Y135.223 E7.59970
G1 X166.666 Y135.424 E7.60527
G1 X166.466 Y135.424 E7.61085
G1 X166.466 Y135.675 E7.61781
G1 X166.215 Y135.675 E7.62478
G1 X166.215 Y135.725 E7.62618
G1 X166.165 Y135.725 E7.62757
G1 X166.165 Y136.076 E7.63732
G1 X165.813 Y136.076 E7.64708
G1 X165.813 Y136.176 E7.64986
G1 X165.713 Y136.176 E7.65265
G1 X165.713 Y137.020 E7.67608
G1 X160.216 Y142.518 E7.89206
G1 X159.373 Y142.518 E7.91547
G1 X159.373 Y142.568 E7.91686
G1 X159.323 Y142.568 E7.91825
G1 X159.323 Y142.717 E7.92240
G1 X159.173 Y142.717 E7.92656
G1 X159.173 Y143.553 E7.94977
G1 X157.512 Y145.184 E8.01444
G1 X157.310 Y145.069 E8.02088
G1 X157.095 Y144.908 E8.02834
G1 X156.397 Y144.527 E8.05042
G1 X155.496 Y144.141 E8.07765
G1 X155.212 Y144.084 E8.08571
G1 X154.683 Y143.885 E8.10141
G1 X154.486 Y143.884 E8.10688
G1 X153.891 Y143.746 E8.12384
G1 X153.364 Y143.694 E8.13856
G1 X153.042 Y143.629 E8.14768
G1 X151.772 Y143.629 E8.18294
G1 X151.672 Y143.680 E8.18607
G1 X151.453 Y143.680 E8.19214
G1 X150.897 Y143.792 E8.20791
G1 X150.802 Y143.838 E8.21083
G1 X150.550 Y143.884 E8.21794
G1 X150.322 Y143.885 E8.22428
G1 X149.920 Y144.036 E8.23622
G1 X149.790 Y144.036 E8.23982
G1 X148.505 Y144.577 E8.27855
G1 X147.904 Y144.911 E8.29763
G1 X147.693 Y145.069 E8.30495
G1 X147.251 Y145.321 E8.31910
G1 X147.076 Y145.498 E8.32600
G1 X146.568 Y145.904 E8.34408
G1 X145.802 Y146.669 E8.37414
G1 X145.750 Y146.772 E8.37735
G1 X145.547 Y146.976 E8.38537
G1 X145.496 Y147.077 E8.38848
G1 X145.314 Y147.260 E8.39567
G1 X145.014 Y147.800 E8.41284
G1 X144.865 Y147.998 E8.41971
G1 X144.585 Y148.489 E8.43542
G1 X144.142 Y149.502 E8.46613
G1 X144.084 Y149.792 E8.47434
G1 X143.931 Y150.199 E8.48640
G1 X143.680 Y151.454 E8.52196
G1 X143.680 Y151.709 E8.52904
G1 X143.629 Y151.960 E8.53616
G1 X143.629 Y153.043 E8.56623
G1 X143.680 Y153.296 E8.57341
G1 X143.680 Y153.550 E8.58048
G1 X143.793 Y154.114 E8.59643
G1 X143.830 Y154.188 E8.59873
G1 X143.921 Y154.777 E8.61528
G1 X144.036 Y155.084 E8.62441
G1 X144.036 Y155.214 E8.62801
G1 X144.574 Y156.491 E8.66652
G1 X144.910 Y157.098 E8.68579
G1 X145.069 Y157.310 E8.69314
G1 X145.184 Y157.513 E8.69963
G1 X143.109 Y159.625 E8.78187
G1 X136.603 Y166.081 E9.03648
G1 X135.809 Y166.081 E9.05851
G1 X135.809 Y166.921 E9.08186
G1 X134.068 Y168.623 E9.14949
G1 X65.687 Y168.623 E11.04899
G1 X54.690 Y157.627 E11.48096
G1 X54.757 Y157.521 E11.48444
G1 X54.910 Y157.367 E11.49047
G1 X55.004 Y157.180 E11.49630
G1 X55.191 Y156.930 E11.50496
G1 X55.256 Y156.767 E11.50984
G1 X55.317 Y156.706 E11.51222
G1 X55.490 Y156.360 E11.52296
G1 X55.693 Y155.853 E11.53813
G1 X55.852 Y155.535 E11.54801
G1 X55.916 Y155.211 E11.55719
G1 X56.115 Y154.681 E11.57292
G1 X56.116 Y154.454 E11.57923
G1 X56.162 Y154.202 E11.58634
G1 X56.231 Y154.062 E11.59067
G1 X56.320 Y153.348 E11.61064
G1 X56.320 Y152.891 E11.62335
G1 X56.397 Y152.502 E11.63436
G1 X56.320 Y152.113 E11.64537
G1 X56.320 Y151.453 E11.66370
G1 X56.208 Y150.897 E11.67947
G1 X56.171 Y150.819 E11.68187
G1 X56.079 Y150.227 E11.69850
G1 X55.964 Y149.920 E11.70763
G1 X55.964 Y149.790 E11.71123
G1 X55.349 Y148.329 E11.75525
G1 X55.245 Y148.225 E11.75936
G1 X55.131 Y147.960 E11.76737
G1 X54.923 Y147.683 E11.77698
G1 X54.718 Y147.341 E11.78805
G1 X54.366 Y146.889 E11.80398
G1 X54.250 Y146.772 E11.80855
G1 X54.199 Y146.671 E11.81171
G1 X53.417 Y145.889 E11.84242
G1 X53.213 Y145.735 E11.84952
G1 X53.025 Y145.547 E11.85691
G1 X52.923 Y145.496 E11.86006
G1 X52.746 Y145.320 E11.86702
G1 X52.308 Y145.069 E11.88103
G1 X52.091 Y144.907 E11.88855
G1 X51.394 Y144.527 E11.91061
G1 X50.493 Y144.141 E11.93784
G1 X50.208 Y144.084 E11.94590
G1 X49.679 Y143.885 E11.96161
G1 X49.482 Y143.884 E11.96708
G1 X48.887 Y143.746 E11.98403
G1 X48.360 Y143.694 E11.99876
G1 X48.038 Y143.629 E12.00787
G1 X46.769 Y143.629 E12.04314
G1 X46.668 Y143.680 E12.04626
G1 X46.450 Y143.680 E12.05233
G1 X45.893 Y143.792 E12.06810
G1 X45.822 Y143.826 E12.07028
G1 X45.501 Y143.883 E12.07934
G1 X45.322 Y143.883 E12.08432
G1 X44.916 Y144.036 E12.09637
G1 X44.786 Y144.036 E12.09997
G1 X43.501 Y144.577 E12.13870
G1 X42.901 Y144.911 E12.15779
G1 X42.690 Y145.069 E12.16512
G1 X42.335 Y145.272 E12.17646
G1 X33.799 Y136.736 E12.51179
G1 X31.377 Y134.287 E12.60747
G1 X31.377 Y65.991 E14.50455
G1 X40.257 Y57.111 E14.85339
G1 X41.100 Y57.111 E14.87682
G1 X41.100 Y56.371 E14.89740
G1 X41.841 Y56.371 E14.91798
G1 X41.841 Y55.694 E14.93677
G1 X42.087 Y55.838 E14.94469
G1 X42.257 Y56.007 E14.95136
G1 X42.797 Y56.307 E14.96850
G1 X42.993 Y56.454 E14.97532
G1 X43.490 Y56.738 E14.99121
G1 X44.756 Y57.281 E15.02949
G1 X45.026 Y57.335 E15.03714
G1 X45.282 Y57.438 E15.04480
G1 X45.789 Y57.539 E15.05916
G1 X45.942 Y57.539 E15.06340
G1 X46.195 Y57.590 E15.07058
G1 X46.309 Y57.590 E15.07374
G1 X46.867 Y57.691 E15.08948
G1 X48.140 Y57.691 E15.12486
G1 X48.394 Y57.641 E15.13205
G1 X48.516 Y57.641 E15.13544
G1 X49.489 Y57.491 E15.16277
G1 X49.618 Y57.426 E15.16677
G1 X49.869 Y57.376 E15.17390
G1 X49.952 Y57.335 E15.17648
G1 X50.218 Y57.290 E15.18397
G1 X51.499 Y56.742 E15.22267
G1 X52.096 Y56.410 E15.24163
G1 X52.307 Y56.252 E15.24895
G1 X52.745 Y56.002 E15.26298
G1 X52.937 Y55.817 E15.27038
G1 X53.332 Y55.620 E15.28264
G1 X53.391 Y55.503 E15.28627
G1 X54.189 Y55.503 E15.30844
G1 X54.189 Y55.152 E15.31819
G1 X54.490 Y55.152 E15.32657
G1 X54.490 Y55.048 E15.32947
G1 X54.594 Y55.048 E15.33234
G1 X54.594 Y54.847 E15.33791
G1 X54.682 Y54.847 E15.34037
G1 X54.708 Y54.288 E15.35593
G1 X55.151 Y54.288 E15.36823
G1 X55.151 Y54.133 E15.37253
G1 X55.254 Y54.133 E15.37539
G1 X55.254 Y53.982 E15.37957
G1 X55.330 Y53.982 E15.38168
G1 X55.332 Y53.878 E15.38457
G1 X55.407 Y53.878 E15.38664
G1 X55.407 Y53.778 E15.38943
G1 X55.457 Y53.778 E15.39082
G1 X55.457 Y53.677 E15.39361
G1 X55.507 Y53.677 E15.39500
G1 X55.507 Y52.834 E15.41843
G1 X55.558 Y52.765 E15.42081
G1 X55.669 Y52.765 E15.42391
G1 X55.910 Y51.559 E15.45808
G1 X56.115 Y51.079 E15.47258
G1 X56.117 Y50.781 E15.48083
G1 X56.175 Y50.490 E15.48908
G1 X56.269 Y50.207 E15.49738
G1 X56.269 Y50.020 E15.50256
G1 X56.320 Y49.765 E15.50979
G1 X56.320 Y49.237 E15.52447
G1 X56.393 Y48.797 E15.53685
G1 X56.320 Y48.430 E15.54725
G1 X56.319 Y47.839 E15.56366
G1 X56.218 Y47.232 E15.58075
G1 X56.167 Y47.129 E15.58393
G1 X56.167 Y47.008 E15.58729
G1 X56.063 Y46.485 E15.60212
G1 X55.964 Y46.255 E15.60906
G1 X55.964 Y46.212 E15.61027
G1 X55.775 Y45.645 E15.62686
G1 X55.346 Y44.643 E15.65713
G1 X55.198 Y44.496 E15.66294
G1 X54.940 Y44.021 E15.67794
G1 X54.628 Y43.619 E15.69208
G1 X54.426 Y43.265 E15.70339
G1 X54.264 Y43.104 E15.70973
G1 X61.269 Y36.099 E15.98492
G1 X62.113 Y36.099 E16.00835
G1 X62.113 Y35.698 E16.01949
G1 X62.514 Y35.698 E16.03064
G1 X62.514 Y34.854 E16.05407
G1 X62.574 Y34.795 E16.05641
G1 X63.342 Y34.795 E16.07775
G1 X62.856 Y34.234 F7800.000
G1 F1800
G1 X62.856 Y33.719 E16.09205
G1 X65.759 Y30.816 E16.20609
G1 X133.986 Y30.817 E18.10128
G1 X136.298 Y33.076 E18.19108
G1 X144.330 Y41.108 E18.50659
G1 X144.330 Y41.319 E18.51247
G1 X144.631 Y41.470 E18.52182
G1 X144.631 Y41.923 E18.53442
G1 X145.086 Y41.923 E18.54706
G1 X145.205 Y41.983 E18.55075
G1 X145.534 Y42.312 E18.56367
G1 X145.534 Y42.523 E18.56956
G1 X145.836 Y42.675 E18.57894
G1 X145.851 Y42.706 E18.57992
G1 X146.157 Y42.935 E18.59052
G1 X146.427 Y43.206 E18.60115
G1 X146.009 Y43.624 E18.61760
G1 X145.935 Y43.771 E18.62215
G1 X145.587 Y44.219 E18.63790
G1 X145.281 Y44.781 E18.65570
G1 X145.099 Y45.023 E18.66409
G1 X144.870 Y45.597 E18.68127
G1 X144.744 Y45.848 E18.68908
G1 X144.636 Y46.279 E18.70140
G1 X144.476 Y46.652 E18.71269
G1 X144.242 Y47.879 E18.74738
G1 X144.241 Y48.091 E18.75326
G1 X144.190 Y48.398 E18.76192
G1 X144.190 Y49.304 E18.78707
G1 X144.241 Y49.559 E18.79430
G1 X144.241 Y49.824 E18.80166
G1 X144.405 Y50.532 E18.82186
G1 X144.464 Y51.010 E18.83522
G1 X144.597 Y51.319 E18.84455
G1 X144.597 Y51.410 E18.84710
G1 X144.970 Y52.343 E18.87502
G1 X145.150 Y52.702 E18.88616
G1 X145.596 Y53.484 E18.91117
G1 X146.324 Y54.380 E18.94324
G1 X147.206 Y55.262 E18.97788
G1 X147.359 Y55.338 E18.98263
G1 X147.601 Y55.555 E18.99165
G1 X148.106 Y55.835 E19.00770
G1 X148.307 Y55.986 E19.01466
G1 X148.742 Y56.234 E19.02858
G1 X149.938 Y56.745 E19.06472
G1 X150.192 Y56.796 E19.07191
G1 X150.446 Y56.897 E19.07951
G1 X150.849 Y56.978 E19.09091
G1 X151.000 Y56.978 E19.09512
G1 X151.253 Y57.028 E19.10228
G1 X151.365 Y57.029 E19.10539
G1 X151.922 Y57.130 E19.12113
G1 X153.088 Y57.130 E19.15352
G1 X153.342 Y57.080 E19.16071
G1 X153.477 Y57.080 E19.16445
G1 X154.317 Y56.950 E19.18807
G1 X154.438 Y56.891 E19.19181
G1 X154.692 Y56.840 E19.19900
G1 X154.783 Y56.795 E19.20183
G1 X155.061 Y56.749 E19.20966
G1 X156.255 Y56.237 E19.24573
G1 X156.793 Y55.938 E19.26284
G1 X157.002 Y55.782 E19.27007
G1 X157.406 Y55.551 E19.28300
G1 X157.645 Y55.338 E19.29189
G1 X157.798 Y55.262 E19.29664
G1 X158.140 Y54.919 E19.31011
G1 X160.142 Y56.923 E19.38878
G1 X160.312 Y57.177 E19.39728
G1 X160.400 Y57.221 E19.40001
G1 X160.400 Y57.693 E19.41312
G1 X160.911 Y57.693 E19.42733
G1 X169.184 Y66.012 E19.75321
G1 X169.184 Y134.299 E21.65009
G1 X167.990 Y135.533 E21.69778
G1 X167.478 Y135.533 E21.71201
G1 X167.478 Y135.583 E21.71340
G1 X167.428 Y135.583 E21.71480
G1 X167.428 Y135.684 E21.71758
G1 X167.328 Y135.684 E21.72037
G1 X167.328 Y135.784 E21.72316
G1 X167.227 Y135.784 E21.72594
G1 X167.227 Y135.985 E21.73152
G1 X167.027 Y135.985 E21.73709
G1 X167.027 Y136.236 E21.74406
G1 X166.776 Y136.236 E21.75103
G1 X166.776 Y136.286 E21.75242
