; generated by Slic3r 1.3.0 on 2024-07-09 at 08:28:23

; external perimeters extrusion width = 0.55mm (7.28mm^3/s)
; perimeters extrusion width = 0.70mm (11.44mm^3/s)
; infill extrusion width = 0.63mm (13.45mm^3/s)
; solid infill extrusion width = 0.70mm (3.81mm^3/s)
; top infill extrusion width = 0.70mm (2.86mm^3/s)

M107
M104 S200 ; set temperature
G28 ; home all axes
G1 Z5 F5000 ; lift nozzle

; Filament gcode

M109 S200 ; set temperature and wait for it to be reached
G21 ; set units to millimeters
G90 ; use absolute coordinates
M82 ; use absolute distances for extrusion
G92 E0
G1 Z0.350 F7800.000
G1 E-2.00000 F2400.00000
G92 E0
G1 X60.162 Y25.402 F7800.000
G1 E2.00000 F2400.00000
G1 F1800
G1 X62.020 Y24.077 E2.06340
G1 X64.841 Y23.439 E2.14375
G1 X134.954 Y23.439 E4.09132
G1 X137.201 Y23.836 E4.15472
G1 X139.634 Y25.401 E4.23506
G1 X174.680 Y61.066 E5.62401
G1 X175.972 Y62.947 E5.68740
G1 X176.561 Y65.665 E5.76464
G1 X176.561 Y134.645 E7.68075
G1 X176.164 Y136.892 E7.74415
G1 X174.639 Y139.284 E7.82294
G1 X139.284 Y174.639 E9.21183
G1 X137.414 Y175.948 E9.27522
G1 X134.645 Y176.561 E9.35401
G1 X65.151 Y176.561 E11.28440
G1 X62.903 Y176.164 E11.34780
G1 X60.511 Y174.639 E11.42659
G1 X25.357 Y139.485 E12.80758
G1 X24.050 Y137.614 E12.87098
G1 X23.439 Y134.849 E12.94963
G1 X23.439 Y65.460 E14.87711
G1 X23.836 Y63.213 E14.94051
G1 X25.320 Y60.862 E15.01773
G1 X60.109 Y25.455 E16.39655
G1 E14.39655 F2400.00000
G92 E0
G1 X54.252 Y43.123 F7800.000
G1 E2.00000 F2400.00000
G1 F1800
G1 X66.021 Y31.354 E2.46232
G1 X133.776 Y31.355 E4.34440
G1 X145.651 Y43.230 E4.81091
G1 X145.073 Y44.017 E4.83803
G1 X144.609 Y44.820 E4.86378
G1 X144.232 Y45.667 E4.88954
G1 X143.946 Y46.548 E4.91528
G1 X143.753 Y47.455 E4.94103
G1 X143.656 Y48.377 E4.96678
G1 X143.656 Y49.304 E4.99252
G1 X143.753 Y50.226 E5.01827
G1 X143.946 Y51.132 E5.04402
G1 X144.232 Y52.014 E5.06977
G1 X144.609 Y52.861 E5.09552
G1 X145.073 Y53.664 E5.12127
G1 X145.618 Y54.413 E5.14702
G1 X146.238 Y55.102 E5.17277
G1 X146.927 Y55.723 E5.19851
G1 X147.677 Y56.268 E5.22427
G1 X148.480 Y56.731 E5.25001
G1 X149.326 Y57.108 E5.27576
G1 X150.208 Y57.394 E5.30151
G1 X151.115 Y57.587 E5.32726
G1 X152.037 Y57.684 E5.35301
G1 X152.963 Y57.684 E5.37875
G1 X153.885 Y57.587 E5.40450
G1 X154.792 Y57.394 E5.43025
G1 X155.674 Y57.108 E5.45600
G1 X156.520 Y56.731 E5.48175
G1 X157.323 Y56.268 E5.50750
G1 X158.110 Y55.689 E5.53462
G1 X168.646 Y66.225 E5.94852
G1 X168.646 Y134.084 E7.83347
G1 X157.517 Y145.213 E8.27068
G1 X157.323 Y145.073 E8.27732
G1 X156.520 Y144.609 E8.30307
G1 X155.674 Y144.232 E8.32882
G1 X154.801 Y143.949 E8.35430
G1 X154.197 Y143.811 E8.37153
G1 X153.422 Y143.692 E8.39328
G1 X152.500 Y143.644 E8.41894
G1 X151.574 Y143.693 E8.44469
G1 X150.659 Y143.838 E8.47044
G1 X149.764 Y144.078 E8.49618
G1 X148.898 Y144.410 E8.52193
G1 X148.072 Y144.831 E8.54768
G1 X147.303 Y145.330 E8.57317
G1 X146.816 Y145.714 E8.59039
G1 X146.236 Y146.240 E8.61214
G1 X145.618 Y146.927 E8.63780
G1 X145.073 Y147.677 E8.66355
G1 X144.609 Y148.479 E8.68930
G1 X144.232 Y149.326 E8.71505
G1 X143.946 Y150.208 E8.74080
G1 X143.753 Y151.115 E8.76655
G1 X143.658 Y152.019 E8.79180
G1 X143.646 Y152.500 E8.80518
G1 X143.659 Y152.985 E8.81865
G1 X143.753 Y153.885 E8.84380
G1 X143.946 Y154.792 E8.86954
G1 X144.232 Y155.673 E8.89529
G1 X144.609 Y156.520 E8.92104
G1 X145.073 Y157.323 E8.94679
G1 X145.213 Y157.517 E8.95343
G1 X134.084 Y168.646 E9.39064
G1 X65.712 Y168.646 E11.28987
G1 X54.701 Y157.635 E11.72242
G1 X54.927 Y157.323 E11.73313
G1 X55.391 Y156.520 E11.75888
G1 X55.768 Y155.674 E11.78463
G1 X56.054 Y154.792 E11.81038
G1 X56.247 Y153.885 E11.83612
G1 X56.342 Y152.981 E11.86138
G1 X56.355 Y152.491 E11.87499
G1 X56.331 Y151.883 E11.89191
G1 X56.246 Y151.111 E11.91346
G1 X56.054 Y150.208 E11.93912
G1 X55.768 Y149.326 E11.96487
G1 X55.391 Y148.480 E11.99062
G1 X54.927 Y147.677 E12.01637
G1 X54.382 Y146.927 E12.04211
G1 X53.764 Y146.241 E12.06777
G1 X53.190 Y145.718 E12.08933
G1 X52.698 Y145.331 E12.10674
G1 X51.928 Y144.831 E12.13223
G1 X51.102 Y144.410 E12.15799
G1 X50.236 Y144.078 E12.18374
G1 X49.341 Y143.838 E12.20948
G1 X48.426 Y143.693 E12.23523
G1 X47.500 Y143.644 E12.26098
G1 X46.574 Y143.693 E12.28673
G1 X45.659 Y143.838 E12.31248
G1 X44.781 Y144.073 E12.33773
G1 X44.310 Y144.240 E12.35159
G1 X43.480 Y144.609 E12.37685
G1 X42.677 Y145.073 E12.40260
G1 X42.365 Y145.299 E12.41330
G1 X31.354 Y134.288 E12.84586
G1 X31.354 Y66.021 E14.74218
G1 X41.782 Y55.592 E15.15185
G1 X41.927 Y55.723 E15.15725
G1 X42.677 Y56.268 E15.18300
G1 X43.480 Y56.731 E15.20875
G1 X44.326 Y57.108 E15.23449
G1 X45.208 Y57.394 E15.26025
G1 X46.115 Y57.587 E15.28599
G1 X47.037 Y57.684 E15.31174
G1 X47.963 Y57.684 E15.33749
G1 X48.885 Y57.587 E15.36324
G1 X49.792 Y57.394 E15.38899
G1 X50.674 Y57.108 E15.41474
G1 X51.520 Y56.731 E15.44048
G1 X52.323 Y56.268 E15.46623
G1 X53.073 Y55.723 E15.49199
G1 X53.763 Y55.101 E15.51779
G1 X54.382 Y54.413 E15.54348
G1 X54.927 Y53.664 E15.56923
G1 X55.391 Y52.861 E15.59498
G1 X55.768 Y52.014 E15.62073
G1 X56.054 Y51.132 E15.64648
G1 X56.247 Y50.226 E15.67223
G1 X56.344 Y49.304 E15.69798
G1 X56.344 Y48.377 E15.72372
G1 X56.247 Y47.455 E15.74947
G1 X56.054 Y46.548 E15.77522
G1 X55.768 Y45.667 E15.80097
G1 X55.391 Y44.820 E15.82672
G1 X54.927 Y44.017 E15.85247
G1 X54.302 Y43.178 E15.88152
G1 X53.479 Y43.102 F7800.000
G1 F1800
G1 X65.788 Y30.793 E16.36508
G1 X134.008 Y30.794 E18.26008
G1 X146.424 Y43.210 E18.74783
G1 X146.054 Y43.621 E18.76318
G1 X145.544 Y44.323 E18.78729
G1 X145.110 Y45.075 E18.81141
G1 X144.757 Y45.868 E18.83553
G1 X144.489 Y46.694 E18.85964
G1 X144.308 Y47.543 E18.88376
G1 X144.217 Y48.406 E18.90787
G1 X144.217 Y49.274 E18.93198
G1 X144.308 Y50.138 E18.95610
G1 X144.489 Y50.987 E18.98022
G1 X144.757 Y51.813 E19.00433
G1 X145.110 Y52.606 E19.02845
G1 X145.544 Y53.358 E19.05256
G1 X146.054 Y54.060 E19.07668
G1 X146.635 Y54.705 E19.10079
G1 X147.280 Y55.286 E19.12491
G1 X147.983 Y55.796 E19.14903
G1 X148.735 Y56.230 E19.17314
G1 X149.528 Y56.584 E19.19725
G1 X150.353 Y56.852 E19.22137
G1 X151.202 Y57.032 E19.24548
G1 X152.066 Y57.123 E19.26960
G1 X152.934 Y57.123 E19.29371
G1 X153.797 Y57.032 E19.31783
G1 X154.647 Y56.852 E19.34195
G1 X155.472 Y56.584 E19.36606
G1 X156.265 Y56.230 E19.39018
G1 X157.017 Y55.796 E19.41429
G1 X157.720 Y55.286 E19.43841
G1 X158.130 Y54.916 E19.45376
G1 X169.207 Y65.993 E19.88890
G1 X169.207 Y134.316 E21.78677
G1 X157.574 Y145.949 E22.24374
G1 X157.017 Y145.544 E22.26287
G1 X156.265 Y145.110 E22.28699
G1 X155.472 Y144.757 E22.31110
G1 X154.652 Y144.490 E22.33506
G1 X154.092 Y144.363 E22.35103
G1 X153.365 Y144.251 E22.37144
G1 X152.500 Y144.206 E22.39551
G1 X151.633 Y144.251 E22.41962
G1 X150.776 Y144.387 E22.44374
G1 X149.937 Y144.612 E22.46785
G1 X149.127 Y144.923 E22.49196
G1 X148.353 Y145.317 E22.51608
G1 X147.630 Y145.787 E22.54004
G1 X147.178 Y146.142 E22.55600
G1 X146.634 Y146.637 E22.57642
G1 X146.054 Y147.280 E22.60049
G1 X145.544 Y147.983 E22.62460
G1 X145.110 Y148.734 E22.64871
G1 X144.757 Y149.528 E22.67283
G1 X144.489 Y150.353 E22.69695
G1 X144.308 Y151.202 E22.72106
G1 X144.218 Y152.055 E22.74489
G1 X144.219 Y152.948 E22.76968
G1 X144.308 Y153.797 E22.79340
G1 X144.489 Y154.647 E22.81752
G1 X144.757 Y155.472 E22.84163
G1 X145.110 Y156.265 E22.86575
G1 X145.544 Y157.017 E22.88987
G1 X145.949 Y157.574 E22.90900
G1 X134.316 Y169.207 E23.36597
G1 X65.479 Y169.207 E25.27811
G1 X53.965 Y157.693 E25.73043
G1 X54.456 Y157.017 E25.75363
G1 X54.890 Y156.265 E25.77774
G1 X55.243 Y155.472 E25.80186
G1 X55.511 Y154.647 E25.82597
G1 X55.692 Y153.798 E25.85009
G1 X55.782 Y152.944 E25.87392
G1 X55.793 Y152.495 E25.88640
G1 X55.771 Y151.924 E25.90226
G1 X55.692 Y151.201 E25.92249
G1 X55.511 Y150.353 E25.94655
G1 X55.243 Y149.528 E25.97067
G1 X54.890 Y148.735 E25.99478
G1 X54.456 Y147.983 E26.01890
G1 X53.946 Y147.281 E26.04301
G1 X53.366 Y146.637 E26.06707
G1 X52.827 Y146.147 E26.08730
G1 X52.371 Y145.787 E26.10345
G1 X51.647 Y145.317 E26.12742
G1 X50.873 Y144.923 E26.15154
G1 X50.063 Y144.612 E26.17565
G1 X49.224 Y144.387 E26.19976
G1 X48.367 Y144.251 E26.22388
G1 X47.500 Y144.206 E26.24800
G1 X46.633 Y144.251 E26.27211
G1 X45.776 Y144.387 E26.29623
G1 X44.947 Y144.609 E26.32005
G1 X44.518 Y144.761 E26.33269
G1 X43.735 Y145.110 E26.35652
G1 X42.983 Y145.544 E26.38064
G1 X42.307 Y146.035 E26.40383
G1 X30.793 Y134.521 E26.85615
G1 X30.793 Y65.788 E28.76538
G1 X41.762 Y54.819 E29.19629
G1 X42.280 Y55.286 E29.21566
G1 X42.983 Y55.796 E29.23978
G1 X43.735 Y56.230 E29.26390
G1 X44.528 Y56.584 E29.28801
G1 X45.353 Y56.852 E29.31213
G1 X46.202 Y57.032 E29.33624
G1 X47.066 Y57.123 E29.36036
G1 X47.934 Y57.123 E29.38447
G1 X48.797 Y57.032 E29.40859
G1 X49.647 Y56.852 E29.43270
G1 X50.472 Y56.584 E29.45682
G1 X51.265 Y56.230 E29.48093
G1 X52.017 Y55.796 E29.50505
G1 X52.720 Y55.286 E29.52917
G1 X53.366 Y54.704 E29.55334
G1 X53.946 Y54.060 E29.57740
G1 X54.456 Y53.358 E29.60151
G1 X54.890 Y52.606 E29.62562
G1 X55.243 Y51.813 E29.64974
G1 X55.511 Y50.987 E29.67386
G1 X55.692 Y50.138 E29.69797
G1 X55.783 Y49.274 E29.72209
G1 X55.783 Y48.406 E29.74620
G1 X55.692 Y47.543 E29.77032
G1 X55.511 Y46.694 E29.79443
G1 X55.243 Y45.868 E29.81855
G1 X54.890 Y45.075 E29.84266
G1 X54.456 Y44.323 E29.86678
G1 X53.946 Y43.621 E29.89089
G1 X53.529 Y43.158 E29.90819
G1 X52.741 Y43.108 F7800.000
G1 F1800
G1 X65.540 Y30.309 E30.33380
G1 X65.506 Y30.275 E30.33493
G1 X134.289 Y30.276 E31.95231
G1 X134.256 Y30.309 E31.95341
G1 X147.151 Y43.204 E32.38222
G1 X147.000 Y43.344 E32.38705
G1 X146.457 Y43.947 E32.40613
G1 X145.979 Y44.606 E32.42527
G1 X145.572 Y45.310 E32.44441
G1 X145.241 Y46.054 E32.46355
G1 X144.990 Y46.828 E32.48268
G1 X144.820 Y47.624 E32.50182
G1 X144.735 Y48.433 E32.52095
G1 X144.735 Y49.247 E32.54009
G1 X144.820 Y50.057 E32.55923
G1 X144.990 Y50.853 E32.57837
G1 X145.241 Y51.627 E32.59750
G1 X145.572 Y52.370 E32.61664
G1 X145.979 Y53.075 E32.63578
G1 X146.457 Y53.734 E32.65492
G1 X147.002 Y54.338 E32.67405
G1 X147.607 Y54.883 E32.69319
G1 X148.265 Y55.361 E32.71233
G1 X148.970 Y55.768 E32.73147
G1 X149.713 Y56.099 E32.75060
G1 X150.488 Y56.351 E32.76974
G1 X151.284 Y56.520 E32.78888
G1 X152.093 Y56.605 E32.80802
G1 X152.907 Y56.605 E32.82715
G1 X153.716 Y56.520 E32.84629
G1 X154.512 Y56.351 E32.86543
G1 X155.286 Y56.099 E32.88456
G1 X156.030 Y55.768 E32.90370
G1 X156.735 Y55.361 E32.92284
G1 X157.393 Y54.883 E32.94198
G1 X157.996 Y54.340 E32.96106
G1 X158.136 Y54.190 E32.96589
G1 X169.725 Y65.779 E33.35126
G1 X169.725 Y134.531 E34.96791
G1 X157.609 Y146.647 E35.37082
G1 X157.392 Y146.456 E35.37761
G1 X156.735 Y145.979 E35.39671
G1 X156.030 Y145.572 E35.41585
G1 X155.286 Y145.241 E35.43498
G1 X154.514 Y144.990 E35.45408
G1 X153.995 Y144.872 E35.46660
G1 X153.312 Y144.767 E35.48284
G1 X152.500 Y144.725 E35.50196
G1 X151.687 Y144.767 E35.52110
G1 X150.883 Y144.895 E35.54024
G1 X150.097 Y145.105 E35.55938
G1 X149.338 Y145.397 E35.57851
G1 X148.612 Y145.766 E35.59765
G1 X147.931 Y146.209 E35.61674
G1 X147.513 Y146.538 E35.62927
G1 X147.002 Y147.002 E35.64551
G1 X146.457 Y147.607 E35.66463
G1 X145.979 Y148.265 E35.68377
G1 X145.572 Y148.970 E35.70291
G1 X145.241 Y149.714 E35.72204
G1 X144.990 Y150.488 E35.74118
G1 X144.820 Y151.284 E35.76032
G1 X144.736 Y152.089 E35.77937
G1 X144.736 Y152.914 E35.79876
G1 X144.820 Y153.716 E35.81773
G1 X144.990 Y154.512 E35.83687
G1 X145.241 Y155.286 E35.85600
G1 X145.572 Y156.030 E35.87514
G1 X145.979 Y156.735 E35.89428
G1 X146.456 Y157.392 E35.91337
G1 X146.647 Y157.609 E35.92017
G1 X134.531 Y169.725 E36.32308
G1 X65.265 Y169.725 E37.95181
G1 X53.255 Y157.715 E38.35118
G1 X53.543 Y157.393 E38.36134
G1 X54.021 Y156.735 E38.38047
G1 X54.428 Y156.030 E38.39961
G1 X54.759 Y155.286 E38.41874
G1 X55.010 Y154.512 E38.43788
G1 X55.180 Y153.716 E38.45702
G1 X55.264 Y152.911 E38.47607
G1 X55.275 Y152.498 E38.48577
G1 X55.254 Y151.963 E38.49837
G1 X55.180 Y151.283 E38.51445
G1 X55.010 Y150.488 E38.53357
G1 X54.759 Y149.714 E38.55271
G1 X54.428 Y148.970 E38.57185
G1 X54.021 Y148.265 E38.59098
G1 X53.543 Y147.607 E38.61012
G1 X52.998 Y147.002 E38.62924
G1 X52.493 Y146.542 E38.64532
G1 X52.069 Y146.209 E38.65801
G1 X51.388 Y145.766 E38.67710
G1 X50.662 Y145.397 E38.69624
G1 X49.903 Y145.105 E38.71538
G1 X49.117 Y144.895 E38.73451
G1 X48.313 Y144.767 E38.75365
G1 X47.500 Y144.725 E38.77279
G1 X46.687 Y144.767 E38.79193
G1 X45.883 Y144.895 E38.81106
G1 X45.101 Y145.104 E38.83011
G1 X44.710 Y145.243 E38.83986
G1 X43.970 Y145.572 E38.85891
G1 X43.265 Y145.979 E38.87805
G1 X42.607 Y146.457 E38.89717
G1 X42.285 Y146.745 E38.90734
G1 X30.275 Y134.735 E39.30671
G1 X30.275 Y65.574 E40.93298
G1 X41.768 Y54.081 E41.31515
G1 X42.003 Y54.339 E41.32335
G1 X42.607 Y54.883 E41.34246
G1 X43.265 Y55.361 E41.36160
G1 X43.970 Y55.768 E41.38074
G1 X44.713 Y56.099 E41.39988
G1 X45.488 Y56.351 E41.41902
G1 X46.284 Y56.520 E41.43815
G1 X47.093 Y56.605 E41.45729
G1 X47.907 Y56.605 E41.47643
G1 X48.716 Y56.520 E41.49556
G1 X49.512 Y56.351 E41.51470
G1 X50.286 Y56.099 E41.53384
G1 X51.030 Y55.768 E41.55297
G1 X51.735 Y55.361 E41.57211
G1 X52.393 Y54.883 E41.59125
G1 X52.999 Y54.337 E41.61043
G1 X53.543 Y53.734 E41.62953
G1 X54.021 Y53.075 E41.64866
G1 X54.428 Y52.370 E41.66780
G1 X54.759 Y51.627 E41.68694
G1 X55.010 Y50.853 E41.70607
G1 X55.180 Y50.057 E41.72521
G1 X55.265 Y49.247 E41.74435
G1 X55.265 Y48.433 E41.76349
G1 X55.180 Y47.624 E41.78262
G1 X55.010 Y46.828 E41.80176
G1 X54.759 Y46.054 E41.82090
G1 X54.428 Y45.310 E41.84003
G1 X54.021 Y44.606 E41.85917
G1 X53.543 Y43.947 E41.87831
G1 X52.999 Y43.343 E41.89742
G1 X52.796 Y43.159 E41.90386
G1 X53.225 Y42.982 F7800.000
G1 E39.90386 F2400.00000
G92 E0
G1 X55.256 Y54.056 F7800.000
G1 E2.00000 F2400.00000
G1 F1800
G1 X77.615 Y31.697 E2.88121
G1 X76.819 Y31.697 E2.90340
G1 X56.067 Y52.449 E3.72128
G1 X56.379 Y51.496 E3.74922
G1 X56.420 Y51.300 E3.75481
G1 X76.023 Y31.697 E4.52741
G1 X75.227 Y31.697 E4.54959
G1 X56.606 Y50.318 E5.28350
G1 X56.686 Y49.442 E5.30803
G1 X74.431 Y31.697 E6.00739
G1 X73.635 Y31.697 E6.02957
G1 X56.686 Y48.646 E6.69756
G1 X56.618 Y47.918 E6.71794
G1 X72.839 Y31.697 E7.35724
G1 X72.043 Y31.697 E7.37942
G1 X56.508 Y47.232 E7.99170
G1 X56.365 Y46.579 E8.01032
G1 X71.247 Y31.697 E8.59687
G1 X70.451 Y31.697 E8.61905
G1 X56.170 Y45.979 E9.18193
G1 X56.074 Y45.684 E9.19057
G1 X55.949 Y45.403 E9.19912
G1 X69.655 Y31.697 E9.73932
G1 X68.860 Y31.697 E9.76151
G1 X55.704 Y44.852 E10.28000
G1 X55.418 Y44.342 E10.29630
G1 X68.064 Y31.697 E10.79468
G1 X67.268 Y31.697 E10.81686
G1 X55.119 Y43.845 E11.29567
G1 X54.784 Y43.384 E11.31155
G1 X66.472 Y31.697 E11.77219
G1 E9.77219 F2400.00000
G92 E0
G1 X42.044 Y56.124 F7800.000
G1 E2.00000 F2400.00000
G1 F1800
G1 X31.697 Y66.472 E2.40781
G1 X31.697 Y67.268 E2.42999
G1 X42.505 Y56.459 E2.85597
G1 X43.002 Y56.759 E2.87213
G1 X31.697 Y68.064 E3.31768
G1 X31.697 Y68.860 E3.33986
G1 X43.512 Y57.044 E3.80553
G1 X44.063 Y57.289 E3.82233
G1 X31.697 Y69.656 E4.30971
G1 X31.697 Y70.452 E4.33189
G1 X44.638 Y57.510 E4.84194
G1 X45.239 Y57.705 E4.85954
G1 X31.697 Y71.247 E5.39327
G1 X31.697 Y72.043 E5.41545
G1 X45.891 Y57.849 E5.97490
G1 X46.245 Y57.924 E5.98497
G1 X46.577 Y57.959 E5.99429
G1 X31.697 Y72.839 E6.58077
G1 X31.697 Y73.635 E6.60295
G1 X47.305 Y58.027 E7.21812
G1 X48.101 Y58.027 E7.24030
G1 X31.697 Y74.431 E7.88684
G1 X31.697 Y75.227 E7.90902
G1 X48.978 Y57.946 E8.59011
G1 X49.191 Y57.924 E8.59609
G1 X49.959 Y57.761 E8.61798
G1 X31.697 Y76.023 E9.33775
G1 X31.697 Y76.819 E9.35993
G1 X51.109 Y57.407 E10.12500
